!!!COM: L. van Beethoven
!!!OTL: Op 59 No 2 2nd Movement - Score
**kern	**dynam	**kern	**dynam	**kern	**dynam	**kern	**dynam	**mxhm
*part4	*part4	*part3	*part3	*part2	*part2	*part1	*part1	*part1
*staff4	*	*staff3	*	*staff2	*	*staff1	*	*
*I"Cello	*	*I"Viola	*	*I"2nd Violin	*	*I"1st Violin	*	*
*clefF4	*	*clefC3	*	*clefG2	*	*clefG2	*	*
*k[f#c#g#d#]	*	*k[f#c#g#d#]	*	*k[f#c#g#d#]	*	*k[f#c#g#d#]	*	*
*M4/4	*	*M4/4	*	*M4/4	*	*M4/4	*	*
*met(c)	*	*met(c)	*	*met(c)	*	*met(c)	*	*
=1	=1	=1	=1	=1	=1	=1	=1	=1
!	!	!	!	!	!	!LO:TX:a:B:t=Molto Adagio. Si tratta questo pezzo con molto di sentimento	!	!
1r	.	1r	.	2r	.	(2e	p	.E.I
.	.	.	.	(2B	p	2d#	.	V
=2	=2	=2	=2	=2	=2	=2	=2	=2
2r	.	(2F#	p	2A	.	2f#	.	ii
(2C#	p	2c#)	.	2G#)	.	2e)	.	vi
=3	=3	=3	=3	=3	=3	=3	=3	=3
2Cn	.	(2F#	.	(2d#	.	(2a	.	viio2
4BB	.	4E	.	4e	.	4g#	.	I64
4AA	.	4F#)	.	4c#X)	.	8.bL	.	ii6(4)
.	.	.	.	.	.	16aJk)	.	ii6
=4	=4	=4	=4	=4	=4	=4	=4	=4
2.BB)	.	(4G#	.	(2e	.	(2g#	.	V(64)
.	.	4A#X	.	.	.	.	.	.
.	.	4B)	.	4d#)	.	4f#)	.	V\\
4r	.	4r	.	[4dn	.	4r	.	.
=5	=5	=5	=5	=5	=5	=5	=5	=5
1r	.	2r	.	(2d]	.	(2b	.	v6
.	.	[2An	.	2c#)	.	2a	.	IV
=6	=6	=6	=6	=6	=6	=6	=6	=6
!LO:TX:b:i:t=cresc.	!	!LO:TX:b:i:t=cresc.	!	!LO:TX:b:i:t=cresc.	!	!LO:TX:b:i:t=cresc.	!	!
(2BB	.	(2A]	.	2d#X	.	2f#	.	V7
2BB#X)	.	2G#)	.	2d#	.	2g#)	.	V6/vi
=7	=7	=7	=7	=7	=7	=7	=7	=7
2C#	f	2E	f	2A#X	f	2e	f	#viio6/V
2BBn	>]	2D#	>]	2An	>]	4..f#X	>	V7
.	.	.	.	.	.	16g#X	]]	.
=8	=8	=8	=8	=8	=8	=8	=8	=8
!	!LO:DY:a	!	!	!	!	!	!	!
4EE	p p	4E	.	4G#	p	4e	p	I\\
4r	.	4B	.	4b	.	4r	.	.
4BB	.	4A	.	4a	.	4r	.	V7
4AA	.	4F#	.	4f#	.	[8BL	.	V2
.	.	.	.	.	.	16B'L]	.	.
.	.	.	.	.	.	16B'JJ	.	.
=9	=9	=9	=9	=9	=9	=9	=9	=9
(2GG#	.	(2E	.	(2e	.	4B	.	I6
.	.	.	.	.	.	[8bL	.	.
.	.	.	.	.	.	16b'L]	.	.
.	.	.	.	.	.	16b'JJ	.	.
2FF#	.	2D#X	.	2d#	.	[8aL	.	viio6
.	.	.	.	.	.	16a'L]	.	.
.	.	.	.	.	.	16g#'JJ	.	.
.	.	.	.	.	.	[8f#L	.	.
.	.	.	.	.	.	16f#'L]	.	.
.	.	.	.	.	.	16e'JJ	.	.
=10	=10	=10	=10	=10	=10	=10	=10	=10
2AA	.	2F#	.	2f#	.	4d#	.	viio64
.	.	.	.	.	.	[8cc#L	.	.
.	.	.	.	.	.	16cc#'L]	.	.
.	.	.	.	.	.	16cc#'JJ	.	.
2GG#)	.	2E)	.	2e)	.	[8cc#L	.	vi64
.	.	.	.	.	.	16cc#'L]	.	.
.	.	.	.	.	.	16b'JJ	.	.
.	.	.	.	.	.	[8eeL	.	.
.	.	.	.	.	.	16ee'L]	.	.
.	.	.	.	.	.	16gg#'JJ	.	.
=11	=11	=11	=11	=11	=11	=11	=11	=11
(2BB#X	.	(2A	.	(2a	.	[8gg#L	.	#viio7(6)/vi
.	.	.	.	.	.	16gg#'L]	.	.
.	.	.	.	.	.	16ff#'JJ	.	#viio7/vi
.	.	.	.	.	.	[8eeL	.	#viio7(4)
.	.	.	.	.	.	16ee'L]	.	.
.	.	.	.	.	.	16dd#'JJ	.	#viio7/vi
2C#)	.	4G#	.	4g#	.	[8eeL	.	vi
.	.	.	.	.	.	16ee'L]	.	.
.	.	.	.	.	.	16e'JJ	.	.
.	.	8.BL	.	8.bL	.	[8d#L	.	IV6(2)
.	.	.	.	.	.	16d#'L]	.	.
.	.	16AJk)	.	16aJk)	.	16e'JJ	.	IV6
=12	=12	=12	=12	=12	=12	=12	=12	=12
2.BBn	.	(2G#	.	(2g#	.	[8eL	.	V(64)
.	.	.	.	.	.	16e'L]	.	.
.	.	.	.	.	.	16f#'JJ	.	.
.	.	.	.	.	.	[8g#L	.	.
.	.	.	.	.	.	16g#'L]	.	.
.	.	.	.	.	.	16a#X'JJ	.	.
.	.	4F#)	.	4f#)	.	[8a#L	.	V(+#7)
.	.	.	.	.	.	16a#'L]	.	.
.	.	.	.	.	.	16b'JJ	.	.
4r	.	4r	.	4r	.	[8bL	.	V\\
.	.	.	.	.	.	16b'L]	.	.
.	.	.	.	.	.	16b'JJ	.	.
=13	=13	=13	=13	=13	=13	=13	=13	=13
(2E#X	.	(2B	.	(2b	.	[8bL	.	#viio/ii
.	.	.	.	.	.	16b'L]	.	.
.	.	.	.	.	.	16b#X'JJ	.	.
.	.	.	.	.	.	[8b#L	.	.
.	.	.	.	.	.	16b#'L]	.	.
.	.	.	.	.	.	16cc#'JJ	.	.
2F#)	.	2A)	.	2a)	.	[8cc#L	.	ii
.	.	.	.	.	.	16cc#'L]	.	.
.	.	.	.	.	.	16dd#'JJ	.	.
.	.	.	.	.	.	[8eeL	.	ii7
.	.	.	.	.	.	16ee'L]	.	.
.	.	.	.	.	.	16ff#'JJ	.	.
=14	=14	=14	=14	=14	=14	=14	=14	=14
!LO:TX:b:i:t=cresc.	!	!LO:TX:b:i:t=cresc.	!	!LO:TX:b:i:t=cresc.	!	!LO:TX:b:i:t=cresc.	!	!
1BB#X	.	(2F#	.	(2f#	.	[8gg#L	.	V65/vi
.	.	.	.	.	.	16gg#'L]	.	.
.	.	.	.	.	.	16gg#'JJ	.	.
.	.	.	.	.	.	[8aanL	.	V65(2)/vi
.	.	.	.	.	.	16aa'L]	.	.
.	.	.	.	.	.	16gg#'JJ	.	.
.	.	2G#)	.	2g#)	.	[8gg#L	.	V6/vi
.	.	.	.	.	.	16gg#'L]	.	.
.	.	.	.	.	.	16ff#'JJ	.	.
.	.	.	.	.	.	[8eeL	.	.
.	.	.	.	.	.	16ee'L]	.	.
.	.	.	.	.	.	16dd#'JJ	.	.
=15	=15	=15	=15	=15	=15	=15	=15	=15
2C#	f	2E	f	2e	f	[8eeL	f	vi
.	.	.	.	.	.	16ee'L]	.	.
.	.	.	.	.	.	16cc#'JJ	.	.
.	.	.	.	.	.	[8bnL	.	vi7
.	.	.	.	.	.	16b'L]	.	.
.	.	.	.	.	.	16a#X'JJ	.	.
2BB	>]	4..F#	>	4..f#	>	[8anL	>	V7
.	.	.	.	.	.	16a'L]	.	.
.	.	.	.	.	.	16f#'JJ	.	.
.	.	.	.	.	.	[8d#L	.	.
.	.	.	.	.	.	16d#'L]	.	.
.	.	16G#	]]	16g#	]]	16B'JJ	]]	.
=16	=16	=16	=16	=16	=16	=16	=16	=16
4EE	p	4E	p	4e	p	8e'L	p	I\\
.	.	.	.	.	.	16r	.	.
.	.	.	.	.	.	16g#'K	.	.
4r	.	4r	.	4r	.	8e'	.	.
.	.	.	.	.	.	16r	.	.
.	.	.	.	.	.	16g#'Jk	.	.
2r	.	2r	.	2r	.	8B'L	.	.
.	.	.	.	.	.	16r	.	.
.	.	.	.	.	.	16g#'K	.	.
.	.	.	.	.	.	8e'	.	.
.	.	.	.	.	.	16r	.	.
.	.	.	.	.	.	16g#'Jk	.	.
=17	=17	=17	=17	=17	=17	=17	=17	=17
!	!	!	!	!LO:TX:b:i:t=espress.	!	!LO:TX:b:i:t=sempre staccato	!	!
1r	.	1r	.	(2b	.	8BL	.	V7
.	.	.	.	.	.	16r	.	.
.	.	.	.	.	.	16aK	.	.
.	.	.	.	.	.	8f#	.	.
.	.	.	.	.	.	16r	.	.
.	.	.	.	.	.	16aJk	.	.
.	.	.	.	2dd#	.	8BL	.	.
.	.	.	.	.	.	16r	.	.
.	.	.	.	.	.	16aK	.	.
.	.	.	.	.	.	8f#	.	.
.	.	.	.	.	.	16r	.	.
.	.	.	.	.	.	16aJk	.	.
=18	=18	=18	=18	=18	=18	=18	=18	=18
!	!	!LO:TX:b:i:t=espress.	!	!	!	!	!	!
1r	.	(2E	.	2.ee	.	8BL	.	I
.	.	.	.	.	.	16r	.	.
.	.	.	.	.	.	16g#K	.	.
.	.	.	.	.	.	8e	.	.
.	.	.	.	.	.	16r	.	.
.	.	.	.	.	.	16g#Jk	.	.
.	.	2G#)	.	.	.	8BL	.	I6
.	.	.	.	.	.	16r	.	.
.	.	.	.	.	.	16g#K	.	.
.	.	.	.	8.dd#L	.	8e	.	.
.	.	.	.	.	.	16r	.	.
.	.	.	.	16cc#Jk)	.	16g#Jk	.	.
=19	=19	=19	=19	=19	=19	=19	=19	=19
!LO:TX:b:i:t=espress.	!	!	!	!	!	!	!	!
(2BB	.	1B	.	(4b	.	8BL	.	V
.	.	.	.	.	.	16r	.	.
.	.	.	.	.	.	16f#K	.	.
.	.	.	.	8.ff#L	.	8d#	.	.
.	.	.	.	.	.	16r	.	.
.	.	.	.	16dd#Jk	.	16f#Jk	.	.
2D#)	.	.	.	4b	.	8BL	.	V65
.	.	.	.	.	.	16r	.	.
.	.	.	.	.	.	16aK	.	.
.	.	.	.	8.cc#L	.	8f#	.	.
.	.	.	.	.	.	16r	.	.
.	.	.	.	16aJk)	.	16aJk	.	.
=20	=20	=20	=20	=20	=20	=20	=20	=20
1E	.	(4B	.	1g#	.	8BL	.	I
.	.	.	.	.	.	16r	.	.
.	.	.	.	.	.	16eK	.	.
.	.	8.g#L	.	.	.	8B	.	.
.	.	.	.	.	.	16r	.	.
.	.	16eJk	.	.	.	16eJk	.	.
.	.	4c#	.	.	.	8G#L	.	vi6
.	.	.	.	.	.	16r	.	.
.	.	.	.	.	.	16e'K	.	.
.	.	8.eL	.	.	.	8c#	.	.
.	.	.	.	.	.	16r	.	.
.	.	16c#Jk)	.	.	.	16eJk	.	.
=21	=21	=21	=21	=21	=21	=21	=21	=21
(2BB#X	.	(2G#	.	8G#'L	.	(2g#	.	V65/vi
.	.	.	.	16r	.	.	.	.
.	.	.	.	16f#'K	.	.	.	.
.	.	.	.	8d#'	.	.	.	.
.	.	.	.	16r	.	.	.	.
.	.	.	.	16f#'Jk	.	.	.	.
2GG#)	.	2F#)	.	8G#'L	.	2b#X)	.	V7/vi
.	.	.	.	16r	.	.	.	.
.	.	.	.	16d#'K	.	.	.	.
.	.	.	.	8B#X'	.	.	.	.
.	.	.	.	16r	.	.	.	.
.	.	.	.	16d#'Jk	.	.	.	.
=22	=22	=22	=22	=22	=22	=22	=22	=22
!	!	!	!	!LO:TX:a:i:t=staccato	!	!	!	!
!LO:TX:b:i:t=cresc.	!	!LO:TX:b:i:t=cresc.	!	!LO:TX:b:i:t=cresc.	!	!LO:TX:b:i:t=cresc.	!	!
(2C#	.	2E	.	8G#L	.	2.cc#	.	i64
.	.	.	.	16r	.	.	.	.
.	.	.	.	16eK	.	.	.	.
.	.	.	.	8c#	.	.	.	.
.	.	.	.	16r	.	.	.	.
.	.	.	.	16eJk	.	.	.	.
2BBn)	.	2gn	.	8GnL	.	.	.	.
.	.	.	.	16r	.	.	.	.
.	.	.	.	16eK	.	.	.	.
.	.	.	.	8c#	.	8.dd#L	.	.
.	.	.	.	16r	.	.	.	.
.	.	.	.	16eJk	.	16eeJk	.	.
=23	=23	=23	=23	=23	=23	=23	=23	=23
!	!	!	!	!	!	!LO:TX:a:i:t=ten.	!	!
4AA#X	f	4f#	f	4c# 4e	f	4cc# 4ee	f	V.V65
8.AA#L	p	8.F#L	p	8.cc#L	p	8.ff#L	p	.
16AA#Jk	.	16F#Jk	.	16cc#Jk	.	16eeJk	.	.
8.BBL	.	8.F#L	.	8.bnL	.	8.dd#L	.	I
16C#K	.	16E#XK	.	16g#K	.	16cc#K	.	V7/V
8.C#	.	8.E#	.	8.g#	.	8.bn	.	.
16C#Jk	.	16E#Jk	.	16g#Jk	.	16cc#Jk	.	.
=24	=24	=24	=24	=24	=24	=24	=24	=24
1F#	.	4F#	.	4f#	.	(8.a#XL	<	V
.	.	.	.	.	.	16gg#K	.	.
.	.	8.A#XL	.	8.c#L	.	8.ff#)	[ >	.
.	.	16A#Jk	.	16c#Jk	.	16eeJk	.	.
.	.	8.BL	.	8.d#L	.	8.dd#L	]	V64
.	.	16BK	.	16d#K	.	16cc#K	.	.
.	.	8.c#	.	8.e#X	.	8.b	.	V7(4)/V
.	.	16c#Jk	.	16e#Jk	.	16cc#Jk	.	.
=25	=25	=25	=25	=25	=25	=25	=25	=25
!LO:TX:b:i:t=cresc.	!	!LO:TX:b:i:t=cresc.	!	!LO:TX:b:i:t=cresc.	!	!LO:TX:b:i:t=cresc.	!	!
(8.F#	.	(4c#	.	(4f#	.	(4a#X	.	V
*clefC4	*	*	*	*	*	*	*	*
16gn	.	.	.	.	.	.	.	.
8.f#L)	.	4f#)	.	4a#X	.	4cc#	.	.
16eJk	.	.	.	.	.	.	.	.
8.dnL	.	(4f#	.	4b	.	4ddn	.	i6
16c#K	.	.	.	.	.	.	.	.
8.B	.	4g#)	.	4ddn)	.	4ee#X)	.	#viio65/V
16c#Jk	.	.	.	.	.	.	.	.
=26	=26	=26	=26	=26	=26	=26	=26	=26
!LO:TX:b:i:t=piu cresc.	!	!LO:TX:b:i:t=piu cresc.	!	!LO:TX:b:i:t=piu cresc.	!	!LO:TX:b:i:t=piu cresc.	!	!
4..A#X	.	4f#	.	4cc#	.	[1ff#	.	V43
.	.	8.F#L	.	8.eenL	.	.	.	.
16B	.	16G#Jk	.	16dd#XJk	.	.	.	.
8.c#L	.	8.A#XL	.	8.cc#L	.	.	.	.
16d#K	.	16BK	.	16bK	.	.	.	.
8.e	.	8.c#	.	8.a#X	.	.	.	.
16c#Jk	.	16A#Jk	.	16eeJk	.	.	.	.
=27	=27	=27	=27	=27	=27	=27	=27	=27
4..d#	p	4..B	p	4dd#	p	8ff#L]	p	I
.	.	.	.	.	.	(16gg#L	.	.
.	.	.	.	.	.	16aa#XJJ	.	.
.	.	.	.	4r	.	16bbLL	.	.
.	.	.	.	.	.	16ccc#	.	.
.	.	.	.	.	.	16ddd#	.	.
16c#	.	16F#	.	.	.	16eeenJJ	.	.
8..BL	.	8..D#L	.	2r	.	[2fff#)	.	I6
32F#KK	.	32D#KK	.	.	.	.	.	.
8..B	.	8..D#	.	.	.	.	.	.
32c#Jkk	.	32D#Jkk	.	.	.	.	.	.
=28	=28	=28	=28	=28	=28	=28	=28	=28
(4..d#	.	(4..B	.	1r	.	8fff#L]	.	I
.	.	.	.	.	.	(16ggg#L	.	.
.	.	.	.	.	.	16aaa#XJJ	.	.
.	.	.	.	.	.	16bbbLL	.	.
.	.	.	.	.	.	16aaa#	.	.
.	.	.	.	.	.	16ggg#X	.	.
16e	.	16c#	.	.	.	16fff#JJ	.	.
2f#)	.	2d#)	.	.	.	16bbbLL	.	I6
.	.	.	.	.	.	16aaa#	.	.
.	.	.	.	.	.	16ggg#	.	.
.	.	.	.	.	.	16fff#JJ	.	.
.	.	.	.	.	.	16eeeLL	.	.
.	.	.	.	.	.	16ddd#	.	.
.	.	.	.	.	.	16ccc#	.	.
.	.	.	.	.	.	16bbJJ)	.	.
=29	=29	=29	=29	=29	=29	=29	=29	=29
(4.g#	>	(4.e	>	1r	.	(16aa#XLL	.	IV
.	.	.	.	.	.	16gg#	.	.
.	.	.	.	.	.	16ff#	.	.
.	.	.	.	.	.	16eeJJ	.	.
.	.	.	.	.	.	16dd#LL	.	.
.	.	.	.	.	.	16cc#	.	.
8G#)	.	8E)	.	.	.	16ee	.	.
.	.	.	.	.	.	[16gg#JJ	.	.
4B	]	4F#	]	.	.	16gg#LL]	.	V(64)
.	.	.	.	.	.	16b	.	.
.	.	.	.	.	.	16dd#	.	.
.	.	.	.	.	.	[16ff#JJ	.	.
4A#X	.	4F#	.	.	.	16ff#LL])	.	V7
.	.	.	.	.	.	(16cc#	.	.
.	.	.	.	.	.	16ff#	.	.
.	.	.	.	.	.	16eeJJ)	.	.
=30	=30	=30	=30	=30	=30	=30	=30	=30
4..BB	f	4..B	f	4..f#	f	4..dd#	f	I\\
16C#	.	16F#	.	16e	.	16cc#	.	.
8..D#L	.	8..F#L	.	8..d#L	.	8..bL	.	I6
32EKK	.	32F#KK	.	32c#KK	.	32g#KK	.	.
8..D#	.	8..F#	.	8..d#	.	8..b	.	.
32C#Jkk	.	32F#Jkk	.	32aJkk	.	32cc#Jkk	.	.
=31	=31	=31	=31	=31	=31	=31	=31	=31
!	!LO:DY:a	!	!LO:DY:a	!	!	!	!	!
(4..BB	sf sf >	1F#	sf > ]]	(4..b	>	(4..dd#	sf >	I
16AA#X	.	.	.	16cc#	.	16ee	.	V65
8..GG#L	.	.	.	2dd#)	]]	2ff#)	]]	I6
32FF#KK	.	.	.	.	.	.	.	.
8..EE	.	.	.	.	.	.	.	.
32DD#Jkk)	]]	.	.	.	.	.	.	.
=32	=32	=32	=32	=32	=32	=32	=32	=32
(8.CC#L	p	((8.EL	p	(4.ee	p	(4.gg#	p	ii6
16DD#K	.	16F#K	.	.	.	.	.	.
8EE	.	8G#	.	.	.	.	.	.
8EE#XJ)	.	8BJ))	.	8d#)	.	8g#)	.	#viio7/V
!LO:TX:b:i:t=cresc.	!	!LO:TX:b:i:t=cresc.	!	!LO:TX:b:i:t=cresc.	!	!LO:TX:b:i:t=cresc.	!	!
4FF#	.	4B	.	(4d#X	.	(4b	.	V(64)
4F#	.	4d#X	.	4B#X)	.	4a)	.	#io43
=33	=33	=33	=33	=33	=33	=33	=33	=33
(4F#'	p	4d#	p	(4B#X'	p	(4a'	p	.
4r	.	8.f#L	.	4r	.	4r	.	.
.	.	16F#Jk	.	.	.	.	.	.
!LO:TX:b:i:t=mancando	!	!	!	!LO:TX:b:i:t=mancando	!	!LO:TX:b:i:t=mancando	!	!
4c#'	.	4F#	.	4e'	.	4g#'	.	V[vi
!	!	!LO:TX:b:i:t=mancando	!	!	!	!	!	!
4r	.	8.f#L	.	4r	.	4r	.	.
.	.	16F#Jk	.	.	.	.	.	.
=34	=34	=34	=34	=34	=34	=34	=34	=34
4A#X'	.	4F#	.	4c#'	.	4gn'	.	viio7
4r	.	8.f#L	.	4r	.	4r	.	.
.	.	16F#Jk	.	.	.	.	.	.
4B')	.	4F#	.	4d#')	.	4f#')	.	I
4r	.	8.f#L	.	4r	.	4r	.	.
.	.	16F#Jk	.	.	.	.	.	.
=35	=35	=35	=35	=35	=35	=35	=35	=35
!LO:TX:b:i:t=poco cresc.	!	!	!	!	!	!	!	!
(2a	.	4F#	.	(2b#X	.	(2dd#	.	#io7
.	.	8.f#L	.	.	.	.	.	.
.	.	16F#Jk	.	.	.	.	.	.
12g#L	.	4F#	.	[4cc#	.	[4ee	.	vi64
12f#	.	.	.	.	.	.	.	.
12eJ	.	.	.	.	.	.	.	.
12d#L	.	8.f#L	.	12cc#L]	.	12eeL]	.	.
12c#	.	.	.	12dd#	.	12ff#	.	.
12BJ)	.	.	.	12eeJ)	.	12gg#J)	.	.
.	.	16F#Jk	.	.	.	.	.	.
=36	=36	=36	=36	=36	=36	=36	=36	=36
!LO:TX:b:i:t=piu cresc.	!	!LO:TX:b:i:t=cresc.	!	!LO:TX:b:i:t=cresc.	!	!LO:TX:b:i:t=cresc.	!	!
(4A#X	.	4F#	.	(4ee	.	(4gg#	.	viio7
4gn	.	8.f#L	.	4a#X	.	4cc#	.	.
.	.	16F#Jk	.	.	.	.	.	.
12f#L	.	4F#	.	4bn	.	4dd#	.	I
12e	.	.	.	.	.	.	.	.
12d#J	.	.	.	.	.	.	.	.
12c#L	.	8.f#L	.	4cc#)	.	4ee)	.	viio]
12B	.	.	.	.	.	.	.	.
12A#J)	.	.	.	.	.	.	.	.
.	.	16F#Jk	.	.	.	.	.	.
=37	=37	=37	=37	=37	=37	=37	=37	=37
!	!	!	!	!LO:TX:a:i:t=sempre	!	!	!	!
(2B	p	(2d#	p	4b	p	(12dd#L	p	I6
.	.	.	.	.	.	12ee	.	.
.	.	.	.	.	.	12ff#J	.	.
.	.	.	.	4r	.	12gg#L	.	.
.	.	.	.	.	.	12aa#X	.	.
!	!	!	!	!	!	!LO:TX:b:i:t=e dolce	!	!
.	.	.	.	.	.	12bbJ	.	.
2F#	.	2A#X	.	4r	.	12aa#L	.	V6
.	.	.	.	.	.	12gg#	.	.
.	.	.	.	.	.	12ff#J	.	.
.	.	.	.	(8.f#L	.	12eeL	.	.
.	.	.	.	.	.	12dd#	.	.
.	.	.	.	.	.	12cc#J)	.	.
.	.	.	.	16eJk	.	.	.	.
=38	=38	=38	=38	=38	=38	=38	=38	=38
2G#	.	2B	.	4d#)	.	(12bL	.	vi
.	.	.	.	.	.	12cc#	.	.
.	.	.	.	.	.	12dd#J	.	.
.	.	.	.	4r	.	12eeL	.	.
.	.	.	.	.	.	12ff#	.	.
.	.	.	.	.	.	12gg#J	.	.
2D#	.	2F#	.	4r	.	12ff#L	.	I6
.	.	.	.	.	.	12ee	.	.
.	.	.	.	.	.	12dd#J	.	.
.	.	.	.	(8.BL	.	12cc#L	.	.
.	.	.	.	.	.	12b	.	.
.	.	.	.	.	.	12a#XJ)	.	.
.	.	.	.	16A#XJk)	.	.	.	.
=39	=39	=39	=39	=39	=39	=39	=39	=39
2E	.	2G#	.	(4..G#	.	(12g#L	.	IV
.	.	.	.	.	.	12a#X	.	.
.	.	.	.	.	.	12bJ	.	.
.	.	.	.	.	.	12cc#L	.	.
.	.	.	.	.	.	12dd#	.	.
.	.	.	.	.	.	12eeJ	.	.
.	.	.	.	16A#X	.	.	.	.
2BB)	.	2D#)	.	[4B	.	12dd#L	.	I
.	.	.	.	.	.	12cc#	.	.
.	.	.	.	.	.	12bJ	.	.
.	.	.	.	12BL]	.	12a#L	.	.
.	.	.	.	12c#	.	12g#	.	.
.	.	.	.	12d#J)	.	12f#J)	.	.
=40	=40	=40	=40	=40	=40	=40	=40	=40
2C#	.	(4A#X	.	(12eL	.	2.e	.	V7
.	.	.	.	12d#	.	.	.	.
.	.	.	.	12c#J)	.	.	.	.
.	.	12BL	.	[4c#	.	.	.	.
.	.	12A#	.	.	.	.	.	.
.	.	12G#J	.	.	.	.	.	.
(12F#L	.	4F#	.	4c#]	.	.	.	.
12E	.	.	.	.	.	.	.	.
12D#J	.	.	.	.	.	.	.	.
12C#L	.	[4c#)	.	[4e	.	[4ee	.	viio
12BB	.	.	.	.	.	.	.	.
12AA#XJ)	.	.	.	.	.	.	.	.
=41	=41	=41	=41	=41	=41	=41	=41	=41
(12GG#L	.	4c#]	.	4e]	.	4ee]	.	ii64
12FF#	.	.	.	.	.	.	.	.
12EEJ	.	.	.	.	.	.	.	.
!LO:TX:b:i:t=cresc.	!	!LO:TX:b:i:t=cresc.	!	!LO:TX:b:i:t=cresc.	!	!LO:TX:b:i:t=cresc.	!	!
12DD#L	.	(4g#	.	[4cc# [4ee	.	[4eee	.	ii
12CC#	.	.	.	.	.	.	.	.
12BBB#XJ	.	.	.	.	.	.	.	.
12CC#L	.	4a#X	.	4cc#] 4ee]	.	4eee]	.	viio6
12DD#	.	.	.	.	.	.	.	.
12EEJ	.	.	.	.	.	.	.	.
12FF#L	.	4cc#	.	([4f# 4ee	.	(4eee	.	V7
12GG#	.	.	.	.	.	.	.	.
12AA#XJ	.	.	.	.	.	.	.	.
=42	=42	=42	=42	=42	=42	=42	=42	=42
12BBL	.	4b	.	(4f#]) 4dd#	.	(4ddd#)	.	I
12C#	.	.	.	.	.	.	.	.
12D#J	.	.	.	.	.	.	.	.
12EL	.	4g#	.	4e 4cc#	.	4ccc#	.	ii6
12F#	.	.	.	.	.	.	.	.
12G#J)	.	.	.	.	.	.	.	.
[2F#	f	2d#) 2f#	f	12bL)	f	[2bb)	f	V(64)
.	.	.	.	12cc#	.	.	.	.
.	.	.	.	12dd#J	.	.	.	.
.	.	.	.	12eeL	.	.	.	.
.	.	.	.	12ff#	.	.	.	.
.	.	.	.	12gg#J	.	.	.	.
=43	=43	=43	=43	=43	=43	=43	=43	=43
1F#_	>]	[1d#	>]	[1b [1ff#	>]	(12bbL]	>	.
.	.	.	.	.	.	12ccc#	.	.
.	.	.	.	.	.	12ddd#J	.	.
.	.	.	.	.	.	12eeeL	.	.
.	.	.	.	.	.	12fff#	.	.
.	.	.	.	.	.	12ggg#J	.	.
.	.	.	.	.	.	12fff#L	.	.
.	.	.	.	.	.	12ggg#	.	.
.	.	.	.	.	.	12aaa#XJ	.	.
.	.	.	.	.	.	12bbbL	.	.
.	.	.	.	.	.	12aaa#	.	.
.	.	.	.	.	.	12ggg#J	]]	.
=44	=44	=44	=44	=44	=44	=44	=44	=44
1F#_	p	1d#]	p	1b] 1ff#]	p	12fff#L	p	.
.	.	.	.	.	.	12eee	.	.
.	.	.	.	.	.	12ddd#J	.	.
.	.	.	.	.	.	12ccc#L	.	.
.	.	.	.	.	.	12bb	.	.
.	.	.	.	.	.	12aa#XJ	.	.
.	.	.	.	.	.	12gg#L	.	.
.	.	.	.	.	.	12ff#	.	.
.	.	.	.	.	.	12eeJ	.	.
.	.	.	.	.	.	12dd#L	.	.
.	.	.	.	.	.	12cc#	.	.
.	.	.	.	.	.	12bJ)	.	.
=45	=45	=45	=45	=45	=45	=45	=45	=45
1F#_	.	[1c#	.	[1e	.	(12a#XL	.	V7
.	.	.	.	.	.	12g#	.	.
.	.	.	.	.	.	12f#J	.	.
.	.	.	.	.	.	12e#XL	.	.
.	.	.	.	.	.	12f#	.	.
.	.	.	.	.	.	12gnJ	.	.
.	.	.	.	.	.	12g#XL	.	.
.	.	.	.	.	.	12an	.	.
.	.	.	.	.	.	12a#XJ	.	.
.	.	.	.	.	.	12bL	.	.
.	.	.	.	.	.	12b#X	.	.
.	.	.	.	.	.	12cc#J	.	.
=46	=46	=46	=46	=46	=46	=46	=46	=46
1F#_	.	1c#_	.	1e_	.	12ddnL	.	.
.	.	.	.	.	.	12dd#X	.	.
.	.	.	.	.	.	12eenJ	.	.
.	.	.	.	.	.	12ee#XL	.	.
.	.	.	.	.	.	12ff#	.	.
.	.	.	.	.	.	12ggnJ	.	.
.	.	.	.	.	.	12gg#XL	.	.
.	.	.	.	.	.	12ff#	.	.
.	.	.	.	.	.	12eenJ	.	.
.	.	.	.	.	.	12dd#L	.	.
.	.	.	.	.	.	12cc#	.	.
.	.	.	.	.	.	12eeJ)	.	.
=47	=47	=47	=47	=47	=47	=47	=47	=47
4F#]	.	4c#]	.	4e]	.	(12bnL	.	.
.	.	.	.	.	.	12a#X	.	.
.	.	.	.	.	.	12cc#J	.	.
4r	.	4r	.	4r	.	12gnL	.	.
.	.	.	.	.	.	12f#	.	.
.	.	.	.	.	.	12a#J	.	.
2r	.	2r	.	2r	.	12cc#L	.	.
.	.	.	.	.	.	12ee	.	.
.	.	.	.	.	.	12gg#XJ	.	.
.	.	.	.	.	.	12ee#XL	.	.
.	.	.	.	.	.	12ff#	.	.
.	.	.	.	.	.	12a#J)	.	.
=48	=48	=48	=48	=48	=48	=48	=48	=48
12BB'L	.	12D#'L	.	1r	.	([4b	.	I[I6
12BB'	.	12D#'	.	.	.	.	.	.
12BB'J	.	12D#'J	.	.	.	.	.	.
8BB'	.	8D#'	.	.	.	12bL]	.	.
.	.	.	.	.	.	12ff#	.	.
8r	.	8r	.	.	.	.	.	.
.	.	.	.	.	.	12dd#J)	.	.
12BB'L	.	12D#'L	.	.	.	([4b	.	.
12BB'	.	12D#'	.	.	.	.	.	.
12BB'J	.	12D#'J	.	.	.	.	.	.
8BB'	.	8D#'	.	.	.	12bL]	.	.
.	.	.	.	.	.	12dd#	.	.
8r	.	8r	.	.	.	.	.	.
.	.	.	.	.	.	12bJ)	.	.
=49	=49	=49	=49	=49	=49	=49	=49	=49
12BBL	.	12EL	.	([4A#X	.	(2.en	.	V64
12BB	.	12E	.	.	.	.	.	.
12BBJ	.	12EJ	.	.	.	.	.	.
8BB	.	8E	.	12A#L]	.	.	.	.
.	.	.	.	12e	.	.	.	.
8r	.	8r	.	.	.	.	.	.
.	.	.	.	12c#J)	.	.	.	.
12BBL	.	12EL	.	([4A#	.	.	.	.
12BB	.	12E	.	.	.	.	.	.
12BBJ	.	12EJ	.	.	.	.	.	.
8BB	.	8E	.	12A#L]	.	4a#X)	.	.
.	.	.	.	12c#	.	.	.	.
8r	.	8r	.	.	.	.	.	.
.	.	.	.	12f#J)	.	.	.	.
=50	=50	=50	=50	=50	=50	=50	=50	=50
12BBL	.	12D#L	.	([4f#	.	([4b	.	I6
12BB	.	12D#	.	.	.	.	.	.
12BBJ	.	12D#J	.	.	.	.	.	.
8BB	.	8D#	.	12f#L]	.	12bL]	.	.
.	.	.	.	12d#	.	12bb	.	.
8r	.	8r	.	.	.	.	.	.
.	.	.	.	12f#J)	.	12ff#J)	.	.
12BBL	.	12D#L	.	([4B	.	([4dd#	.	.
12BB	.	12D#	.	.	.	.	.	.
12BBJ	.	12D#J	.	.	.	.	.	.
8BB	.	8D#	.	12BL]	.	12dd#L]	.	.
.	.	.	.	12d#	.	12ff#	.	.
8r	.	8r	.	.	.	.	.	.
.	.	.	.	12f#J)	.	12bJ)	.	.
=51	=51	=51	=51	=51	=51	=51	=51	=51
12BBL	.	12EL	.	([4f#	.	(2a#X	.	V2]
12BB	.	12E	.	.	.	.	.	.
12BBJ	.	12EJ	.	.	.	.	.	.
8BB	.	8E	.	12f#L]	.	.	.	.
.	.	.	.	12ee	.	.	.	.
8r	.	8r	.	.	.	.	.	.
.	.	.	.	12cc#J)	.	.	.	.
12BBL	.	12EL	.	(12a#XL	.	4cc#	.	.
12BB	.	12E	.	12ee	.	.	.	.
12BBJ	.	12EJ	.	12cc#J	.	.	.	.
8BB	.	8E	.	12a#L	.	4ff#)	.	.
.	.	.	.	12cc#	.	.	.	.
8r	.	8r	.	.	.	.	.	.
.	.	.	.	12a#J)	.	.	.	.
=52	=52	=52	=52	=52	=52	=52	=52	=52
(2d#	.	(2f#	.	(2b	.	[2ff#T	.	I6
2c#	.	2e	.	2a#X	.	4..ff#]	.	V43
.	.	.	.	.	.	16qqee#X/LL	.	.
.	.	.	.	.	.	16qqff#/JJ	.	.
.	.	.	.	.	.	16gg#	.	.
=53	=53	=53	=53	=53	=53	=53	=53	=53
2e	.	2gn	.	2cc#	.	(2aa#X	.	viio43
2d#)	.	2f#)	.	2b)	.	2bb	.	I6
=54	=54	=54	=54	=54	=54	=54	=54	=54
(2f##X	.	(2a#X	.	(2ee	.	2ccc#	.	#viio7/vi
4g#	.	4b	.	4dd#	.	4bb	.	vi
4e)	.	4g#X)	.	8.ff#L	.	8.ddd#L	.	ii6
.	.	.	.	16eeJk)	.	16ccc#Jk)	.	.
=55	=55	=55	=55	=55	=55	=55	=55	=55
(2f#X	.	(2.f#	.	(2dd#	.	(2bb	.	V(64)
4F#)	.	.	.	4cc#)	.	4aa#X)	.	V\\
4r	.	4e)	pp	4r	.	4r	.	.
=56	=56	=56	=56	=56	=56	=56	=56	=56
2BB	pp	(2dn	.	2ff#	pp	1r	.	ii6
!LO:TX:b:i:t=cresc.	!	!LO:TX:a:i:t=cresc.	!	!LO:TX:b:i:t=cresc.	!	!	!	!
[2GGn	.	2B)	.	[2e 2ee	.	.	.	.
=57	=57	=57	=57	=57	=57	=57	=57	=57
2GG]	.	2A	.	2e] 2cc#X	.	(8aanL	.	V2
.	.	.	.	.	.	16bbL	.	.
.	.	.	.	.	.	16ccc#JJ	.	.
.	.	.	.	.	.	16dddnLL	.	.
.	.	.	.	.	.	16eee	.	.
.	.	.	.	.	.	16fff#	.	.
.	.	.	.	.	.	16gggnJJ	.	.
2FF#	f	2F# 2A	f	2dn 2ddn	f	[4aaa)	f	I6
.	.	.	.	.	.	16aaaLL]	.	.
.	.	.	.	.	.	(16ggg	.	.
.	.	.	.	.	.	16fff#	.	.
.	.	.	.	.	.	16eeeJJ	.	.
=58	=58	=58	=58	=58	=58	=58	=58	=58
!	!	!	!	!LO:TX:a:t=sul G.	!	!	!	!
2AA	ff	2F#X	ff	2dn	ff	16dddnLL	ff	V(64)
.	.	.	.	.	.	16ccc#	.	.
.	.	.	.	.	.	16bb	.	.
.	.	.	.	.	.	16aaJJ	.	.
.	.	.	.	.	.	16ggnLL	.	.
.	.	.	.	.	.	16ff#	.	.
.	.	.	.	.	.	16ee	.	.
.	.	.	.	.	.	16ddnJJ	.	.
2AA	f > ]]	4..Gn	f >	4..e	f >	16cc#LL	>	V7
.	.	.	.	.	.	16b	f	.
.	.	.	.	.	.	16a	.	.
.	.	.	.	.	.	16gnJJ	.	.
.	.	.	.	.	.	16f#LL	.	.
.	.	.	.	.	.	16e	.	.
.	.	.	.	.	.	16dn	.	.
.	.	16A	]]	16f#	]]	16c#JJ)	]]	.
=59	=59	=59	=59	=59	=59	=59	=59	=59
12DDn'L	p	4F#	p	4dn	p	([4dn	p	I
12DD'	.	.	.	.	.	.	.	.
12DD'J	.	.	.	.	.	.	.	.
8DD'	.	4r	.	4r	.	12dL]	.	.
.	.	.	.	.	.	12a	.	.
8r	.	.	.	.	.	.	.	.
.	.	.	.	.	.	12f#J)	.	.
12DD'L	.	2r	.	2r	.	([4d	.	.
12DD'	.	.	.	.	.	.	.	.
12DD'J	.	.	.	.	.	.	.	.
8DD'	.	.	.	.	.	12dL]	.	.
.	.	.	.	.	.	12f#	.	.
8r	.	.	.	.	.	.	.	.
.	.	.	.	.	.	12dJ)	.	.
=60	=60	=60	=60	=60	=60	=60	=60	=60
12DDn'L	.	1r	.	([4gn	.	(2B-X	.	i(b64)
12DD'	.	.	.	.	.	.	.	.
12DD'J	.	.	.	.	.	.	.	.
8DD'	.	.	.	12gL]	.	.	.	.
.	.	.	.	12ggn	.	.	.	.
8r	.	.	.	.	.	.	.	.
.	.	.	.	12eeJ)	.	.	.	.
12DD'L	.	.	.	([4cc#	.	4An	.	i(974)
12DD'	.	.	.	.	.	.	.	.
12DD'J	.	.	.	.	.	.	.	.
8DD'	.	.	.	12cc#L]	.	4c#)	.	.
.	.	.	.	12ee	.	.	.	.
8r	.	.	.	.	.	.	.	.
.	.	.	.	12gJ)	.	.	.	.
=61	=61	=61	=61	=61	=61	=61	=61	=61
12DDn'L	.	([4Dn	.	([4fn	.	2dn	.	.bV.iii
12DD'	.	.	.	.	.	.	.	.
12DD'J	.	.	.	.	.	.	.	.
8DD'	.	12DL]	.	12fL]	.	.	.	.
.	.	12A	.	12a	.	.	.	.
8r	.	.	.	.	.	.	.	.
.	.	12FnJ)	.	12fJ)	.	.	.	.
12DD'L	.	([4D	.	([4dn	.	2a 2ffn	.	.
12DD'	.	.	.	.	.	.	.	.
12DD'J	.	.	.	.	.	.	.	.
8DD'	.	12DL]	.	12dL]	.	.	.	.
.	.	12F	.	12f	.	.	.	.
8r	.	.	.	.	.	.	.	.
.	.	12DJ)	.	12dJ)	.	.	.	.
=62	=62	=62	=62	=62	=62	=62	=62	=62
12CCn'L	.	[1E-X	.	[4e-X	.	[4a [4ffn	.	V43
12CC'	.	.	.	.	.	.	.	.
12CC'J	.	.	.	.	.	.	.	.
8CC'	.	.	.	(12e-L]	.	(12aL] 12ff]	.	.
.	.	.	.	12a	.	12eee-X	.	.
8r	.	.	.	.	.	.	.	.
.	.	.	.	12ccnJ)	.	12cccnJ)	.	.
12FFn'L	.	.	.	(12ee-XL	.	[4aa	.	V7
12FF'	.	.	.	12a	.	.	.	.
12FF'J	.	.	.	12ccJ	.	.	.	.
8FF'	.	.	.	12fnL	.	(12aaL]	.	.
.	.	.	.	12ffn	.	12ccc	.	.
8r	.	.	.	.	.	.	.	.
.	.	.	.	12aJ)	.	12fffnJ)	.	.
=63	=63	=63	=63	=63	=63	=63	=63	=63
(2BB-X	pp	(12E-L]	pp	4b-X	.	4bb-X	.	I
.	.	12Dn)	.	.	.	.	.	.
.	.	12D'J	.	.	.	.	.	.
.	.	(12DL	.	4r	.	12r	.	.
.	.	12En)	.	.	.	12ddnL	pp	.
.	.	12E'J	.	.	.	12ddJ	.	.
2AA)	.	(12EL	.	12r	.	(12ddL	.	V6
.	.	12Fn)	.	12cnL	pp	12ccn)	.	.
.	.	12F'J	.	12cJ	.	12cc'J	.	.
.	.	12FL	.	(12cL	.	4r	.	iii64
.	.	12F	.	12dn)	.	.	.	.
.	.	12FJ	.	12d'J	.	.	.	.
=64	=64	=64	=64	=64	=64	=64	=64	=64
(2Cn	.	(12FnL	.	(12dnL	.	4r	.	ii
.	.	12E-X)	.	12e-X)	.	.	.	.
.	.	12E-'J	.	12e-'J	.	.	.	.
.	.	(12E-L	.	4r	.	12r	.	.
.	.	12F#X)	.	.	.	12ee-XL	.	#viio43/vi
.	.	12F#'J	.	.	.	12ee-J	.	.
2BBn)	.	(12F#L	.	12r	.	(12ee-L	.	.
.	.	12Gn)	.	12dL	.	12ddn)	.	V6/ii
.	.	12G'J	.	12dJ	.	12dd'J	.	.
.	.	12GL	.	(12dL	.	4r	.	#iv%43
.	.	12G	.	12en)	.	.	.	.
.	.	12GJ	.	12e'J	.	.	.	.
=65	=65	=65	=65	=65	=65	=65	=65	=65
(2Dn	.	(12GnL	.	(12eL	.	4r	.	iii
.	.	12Fn)	.	12fn)	.	.	.	.
.	.	12F'J	.	12f'J	.	.	.	.
.	.	(12FL	.	4r	.	12r	.	.
.	.	12G#X)	.	.	.	12ffnL	.	viio43/iii
.	.	12G#'J	.	.	.	12ffJ	.	.
2C#X)	.	(12G#L	.	12r	.	(12ffL	.	.
.	.	12A)	.	12eL	.	12een)	.	V6/iii
.	.	12A'J	.	12eJ	.	12ee'J	.	.
.	.	12AL	.	(12eL	.	4r	.	I.ii43
.	.	12A	.	12f#X)	.	.	.	.
.	.	12AJ	.	12f#'J	.	.	.	.
=66	=66	=66	=66	=66	=66	=66	=66	=66
!LO:TX:b:i:t=cresc.	!	!LO:TX:b:i:t=cresc.	!	!LO:TX:b:i:t=cresc.	!	!LO:TX:b:i:t=cresc.	!	!
(2E	.	(12AL	.	(12f#L	.	12r	.	.
.	.	12A#X)	.	12gn)	.	12ggnL	.	#viio43/V
.	.	12A#'J	.	12g'J	.	12ggJ	.	.
.	.	12A#L	.	12gL	.	12ggL	.	.
.	.	12A#	.	12g	.	12gg	.	.
.	.	12A#J	.	12gJ	.	12ggJ	.	.
2D#X)	.	(12A#L	.	(12gL	.	(12ggL	.	V6
.	.	12B)	.	12f#X)	.	12ff#X)	.	.
.	.	12B'J	.	12f#'J	.	12ff#'J	.	.
.	.	12BL	.	(12f#L	.	(12ff#L	.	.
.	.	12B	.	12g#X)	.	12gg#X)	.	iii64
.	.	12BJ	.	12g#'J	.	12gg#'J	.	.
=67	=67	=67	=67	=67	=67	=67	=67	=67
(2F#	.	(12BL	.	(12g#XL	.	(12gg#XL	.	iio
.	.	12cn)	.	12a)	.	12aa)	.	.
.	.	12c'J	.	12a'J	.	12aa'J	.	.
.	.	12cL	.	12aL	.	12aaL	.	.
.	.	12c	.	12a	.	12aa	.	.
.	.	12cJ	.	12aJ	.	12aaJ	.	.
2E#X)	.	(12cL	.	(12aL	.	(12aaL	.	V6/ii
.	.	12c#X)	.	12g#)	.	12gg#)	.	.
.	.	12c#'J	.	12g#'J	.	12gg#'J	.	.
.	.	(12c#L	.	(12g#L	.	(12gg#L	.	.
.	.	12dn)	.	12b)	.	12bb)	.	#viio7/ii
.	.	12d'J	.	12b'J	.	12bb'J	.	.
=68	=68	=68	=68	=68	=68	=68	=68	=68
!LO:TX:b:i:t=piu cresc.	!	!LO:TX:b:i:t=piu cresc.	!	!LO:TX:b:i:t=piu cresc.	!	!LO:TX:b:i:t=piu cresc.	!	!
12G#L	.	(12dnL	.	(12bL	.	(12bbL	.	#viio65/ii
12G#	.	12e#X)	.	12ddn)	.	12dddn)	.	.
12G#J	.	12dJ 12b	.	12ddJ	.	12dddJ	.	.
12G#L	.	12dL 12b	.	(12ddL	.	(12dddL	.	.
12G#	.	12d 12b	.	12ee#X)	.	12eee#X)	.	.
12G#J	.	12dJ 12b	.	12ee#J	.	12eee#J	.	.
12G#L	f	12dL 12b	f	(12ee#L	f	(12eee#L	f	.
12G#	.	12d 12b	.	12gg#)	.	12ggg#)	.	.
12G#J	.	12dJ 12b	.	12gg#J	.	12ggg#J	.	.
12G#L	.	12dL 12b	.	(12gg#L	.	(12ggg#L	.	.
12G#	.	12d 12b	.	12bb)	.	12bbb)	.	.
12G#J	.	12dJ 12b	.	12ee#J	.	12eee#J	.	.
=69	=69	=69	=69	=69	=69	=69	=69	=69
12AL	ff	12c#L	ff	12ff#L	ff	[4fff#	ff	ii6
12A	.	12c#	.	12f#	.	.	.	.
12AJ	.	12c#J	.	12f#J	.	.	.	.
12AL	.	12c#L	.	12f#L	.	12fff#L]	.	.
12A	.	12c#	.	12f#	.	12ccc#'	.	.
12AJ	.	12c#J	.	12f#J	.	12aa'J	.	.
12AL	.	12c#L	.	12f#L	.	12ff#'L	.	.
12A	.	12c#	.	12f#	.	12cc#'	.	.
12AJ	.	12c#J	.	12f#J	.	12a'J	.	.
12AL	.	12c#L	.	12f#L	.	12f#'L	.	.
12A	.	12c#	.	12f#	.	12c#'	.	.
12AJ	.	12c#J	.	12f#J	.	12A'J	.	.
=70	=70	=70	=70	=70	=70	=70	=70	=70
12BL	p	12dnL	p	12gnL	p	[4Gn	p	.bIII6
12BB	.	12B	.	12dn	.	.	.	.
12BBJ	.	12BJ	.	12dJ	.	.	.	.
8BB	.	8B	.	8d	.	(12GL]	.	.
.	.	.	.	.	.	12B	.	.
8r	.	8r	.	8r	.	.	.	.
.	.	.	.	.	.	12dnJ)	.	.
12C#L	.	[4E#X	.	12r	.	4r	.	V7/ii
12C#	.	.	.	12BL	.	.	.	.
12C#J	.	.	.	12BJ	.	.	.	.
8C#	.	(12E#L]	.	8B	.	[4ccc#	.	.
.	.	12G#	.	.	.	.	.	.
8r	.	.	.	8r	.	.	.	.
.	.	12c#J)	.	.	.	.	.	.
=71	=71	=71	=71	=71	=71	=71	=71	=71
12AAL	f	12C#L	f	12AL 12f#	f	4ccc#]	f	ii6
12AA	.	12C#	.	12A 12f#	.	.	.	.
12AAJ	.	12C#J	.	12AJ 12f#	.	.	.	.
12AAL	.	12C#L	.	12AL 12f#	.	12fff#'L	.	.
12AA	.	12C#	.	12A 12f#	.	12ccc#'	.	.
12AAJ	.	12C#J	.	12AJ 12f#	.	12aa'J	.	.
12AAL	.	12C#L	.	12AL 12f#	.	12ff#'L	.	.
12AA	.	12C#	.	12A 12f#	.	12cc#'	.	.
12AAJ	.	12C#J	.	12AJ 12f#	.	12a'J	.	.
12AAL	.	12C#L	.	12AL 12f#	.	12f#'L	.	.
12AA	.	12C#	.	12A 12f#	.	12c#'	.	.
12AAJ	.	12C#J	.	12AJ 12f#	.	12A'J	.	.
=72	=72	=72	=72	=72	=72	=72	=72	=72
12BBL	p	12DnL	p	12gnL	p	[4Gn	p	.bIII6
12BB	.	12B	.	12dn	.	.	.	.
12BBJ	.	12BJ	.	12dJ	.	.	.	.
8BB	.	8B	.	8d	.	(12GL]	.	.
.	.	.	.	.	.	12B	.	.
8r	.	8r	.	8r	.	.	.	.
.	.	.	.	.	.	12dnJ)	.	.
12C#L	.	[4E#X	.	4r	.	4r	.	V/ii
12C#	.	.	.	.	.	.	.	.
12C#J	.	.	.	.	.	.	.	.
8C#	.	(12E#L]	.	4r	.	(12e#XL	.	.
.	.	12G#	.	.	.	12g#X	.	.
8r	.	.	.	.	.	.	.	.
.	.	12c#J)	.	.	.	12cc#J)	.	.
=73	=73	=73	=73	=73	=73	=73	=73	=73
12r	.	[4F#	.	1r	.	[4f#	.	iio6
12AAL	.	.	.	.	.	.	.	.
12AAJ	.	.	.	.	.	.	.	.
8AA	.	(12F#L]	.	.	.	(12f#L]	.	.
.	.	12A	.	.	.	12a	.	.
8r	.	.	.	.	.	.	.	.
.	.	12cnJ)	.	.	.	12ccnJ)	.	.
12r	.	[4D#X	.	.	.	[4d#	.	V
12BBL	.	.	.	.	.	.	.	.
12BBJ	.	.	.	.	.	.	.	.
8BB	.	(12D#L]	.	.	.	(12d#L]	.	.
.	.	12F#	.	.	.	12f#	.	.
8r	.	.	.	.	.	.	.	.
.	.	12BJ)	.	.	.	12bJ)	.	.
=74	=74	=74	=74	=74	=74	=74	=74	=74
[2.BB	.	12r	.	12r	.	[4ccn	.	V9
.	.	(12AL	.	(12d#XL	.	.	.	.
.	.	12GnJ	.	12eJ	.	.	.	.
.	.	[4F#)	.	[4f#)	.	12ccL]	.	.
.	.	.	.	.	.	8qddn/	.	.
.	.	.	.	.	.	(12cc	.	.
.	.	.	.	.	.	12bJ)	.	.
.	.	12F#L]	.	12f#L]	.	[4cc	.	.
.	.	(12F#	.	(12f#	.	.	.	.
.	.	12EnJ	.	12gnJ	.	.	.	.
12BBL]	.	[4D#)	.	[4a)	.	12ccL]	.	.
.	.	.	.	.	.	8qdd/	.	.
12BB	.	.	.	.	.	(12cc	.	.
12BBJ	.	.	.	.	.	12bJ)	.	.
=75	=75	=75	=75	=75	=75	=75	=75	=75
[2.BB	.	12D#L]	.	12aL]	.	[4ccn	.	.
.	.	(12A	.	(12d#	.	.	.	.
.	.	12GnJ	.	12eJ	.	.	.	.
.	.	[4F#)	.	[4f#)	.	12ccL]	.	.
.	.	.	.	.	.	8qddn/	.	.
.	.	.	.	.	.	(12cc	.	.
.	.	.	.	.	.	12bJ)	.	.
.	.	12F#L]	.	12f#L]	.	[4cc	.	.
.	.	(12F#	.	(12f#	.	.	.	.
.	.	12EJ	.	12gnJ	.	.	.	.
12BBL]	.	12D#L)	.	12aL)	.	12ccL]	.	.
.	.	.	.	.	.	8qdd/	.	.
12BB	.	12D#	.	12a	.	(12cc	.	.
12BBJ	.	12D#J	.	12aJ	.	12bJ)	.	.
=76	=76	=76	=76	=76	=76	=76	=76	=76
1Cn	f	1E	f	1e 1a	f	1a 1ee	f	iv6
=77	=77	=77	=77	=77	=77	=77	=77	=77
[2.BB	p	8F#	p	8b	p	12dd#XL	p	V7(9)
.	.	.	.	.	.	8qdn/	.	.
.	.	.	.	.	.	12cn'	.	.
.	.	8r	.	8r	.	.	.	.
.	.	.	.	.	.	12B'J	.	.
.	.	4r	.	12r	.	[2c	.	.
.	.	.	.	8qB/	.	.	.	.
.	.	.	.	12A'L	.	.	.	.
.	.	.	.	12G#X'J	.	.	.	.
.	.	12r	.	[4A	.	.	.	.
.	.	8qGn/	.	.	.	.	.	.
.	.	12F#'L	.	.	.	.	.	.
.	.	12E#X'J	.	.	.	.	.	.
12BBL]	.	(12F#L	.	12AL]	.	(12cL]	.	.
12BB	.	12D#	.	(12A	.	12B)	.	V7
12BBJ	.	12EnJ)	.	12GnJ)	.	12BJ	.	i64
=78	=78	=78	=78	=78	=78	=78	=78	=78
1CCn 1Cn	f	1E	f	1A	f	1e	f	iv6
=79	=79	=79	=79	=79	=79	=79	=79	=79
4BB	p	(4F#'	p	(4B'	p	(4d#'	p	V[V64
8.BL	.	4r	.	4r	.	4r	.	.
16BBJk	.	.	.	.	.	.	.	.
4BB	.	4f#')	.	4a')	.	4d#') 4ccn	.	viio7
8.BL	.	4r	.	4r	.	4r	.	.
16BBJk	.	.	.	.	.	.	.	.
=80	=80	=80	=80	=80	=80	=80	=80	=80
4BB	.	(4B'	.	(4gn'	.	(4e' 4b	.	i64
8.BL	.	4r	.	4r	.	4r	.	.
16BBJk	.	.	.	.	.	.	.	.
4BB	.	4f#')	.	4d#')	.	4cn') 4a	.	viio7
8.BL	.	4r	.	4r	.	4r	.	.
16BBJk	.	.	.	.	.	.	.	.
=81	=81	=81	=81	=81	=81	=81	=81	=81
!LO:TX:b:i:t=dim.	!	!LO:TX:b:i:t=dim.	!	!LO:TX:b:i:t=dim.	!	!LO:TX:b:i:t=dim.	!	!
4BB	.	(4B'	.	(4e'	.	(4B' 4gn	.	i64
8.BL	.	4r	.	4r	.	4r	.	.
16BBJk	.	.	.	.	.	.	.	.
4BB	.	4cn')	.	4d#')	.	4A') 4f#	.	viio43
8.BL	.	4r	.	4r	.	4r	.	.
16BBJk	.	.	.	.	.	.	.	.
=82	=82	=82	=82	=82	=82	=82	=82	=82
4BB	.	(4B'	.	(4B'	.	(4Gn' 4e	.	i64
8.BL	.	4r	.	4r	.	4r	.	.
16BBJk	.	.	.	.	.	.	.	.
4BB	.	4A#X')	.	4c#X')	.	4G') 4e	.	#viio2/V
8.BL	.	4r	.	4r	.	4r	.	.
16BBJk	.	.	.	.	.	.	.	.
=83	=83	=83	=83	=83	=83	=83	=83	=83
8.BB'L	pp	4F#	pp	4B	pp	4d#X	pp	V64
16AA#X'K	.	.	.	.	.	.	.	.
8.BB'	.	4r	.	4r	.	4r	.	.
16AA#'Jk	.	.	.	.	.	.	.	.
8.BB'L	.	2r	.	[2ccn	.	2r	.	V(9)
16AA#'K	.	.	.	.	.	.	.	.
8.BB'	.	.	.	.	.	.	.	.
16AA#'Jk	.	.	.	.	.	.	.	.
=84	=84	=84	=84	=84	=84	=84	=84	=84
!LO:TX:b:i:t=cresc.	!	!LO:TX:b:i:t=cresc.	!	!LO:TX:b:i:t=cresc.	!	!	!	!
8.BB'L	.	2e	.	2cc]	.	2r	.	V(94)
16AAn'K	.	.	.	.	.	.	.	.
8.BB'	.	.	.	.	.	.	.	.
16AA'Jk	.	.	.	.	.	.	.	.
8.BB'L	f >	2d#	f > ]]	[2b	f > ]]	2B 2f#	f > ]]	V]
16AA'K	.	.	.	.	.	.	.	.
8.BB'	.	.	.	.	.	.	.	.
16AA'Jk	]]	.	.	.	.	.	.	.
=85	=85	=85	=85	=85	=85	=85	=85	=85
(8GG#L	p	4g#X	p	4b]	p	(2e	p	I6
16GG#'L)	.	.	.	.	.	.	.	.
16BB'J	.	.	.	.	.	.	.	.
(8AA	.	8r	.	(2b	.	.	.	.
16AA'L)	.	8G#	.	.	.	.	.	.
16GG#'JJ	.	.	.	.	.	.	.	.
(8FF#L	.	2F#	.	.	.	2d#	.	V65
16FF#'L)	.	.	.	.	.	.	.	.
16EE'J	.	.	.	.	.	.	.	.
(8DD#	.	.	.	4a)	.	.	.	.
16DD#'L)	.	.	.	.	.	.	.	.
16CC#'JJ	.	.	.	.	.	.	.	.
=86	=86	=86	=86	=86	=86	=86	=86	=86
(8BBB#XL	.	2G#	.	4g#	.	2f#	.	V65/vi
16BBB#'L)	.	.	.	.	.	.	.	.
16GG#'J	.	.	.	.	.	.	.	.
(8AA#X	.	.	.	2dd#	.	.	.	.
16AA#'L)	.	.	.	.	.	.	.	.
16BB#X'JJ	.	.	.	.	.	.	.	.
(8C#L	.	2C#	.	.	.	2e)	.	IV
16C#'L)	.	.	.	.	.	.	.	.
16BBn'J	.	.	.	.	.	.	.	.
(8AAn	.	.	.	[4cc#	.	.	.	.
16AA'L)	.	.	.	.	.	.	.	.
16GG#'JJ	.	.	.	.	.	.	.	.
=87	=87	=87	=87	=87	=87	=87	=87	=87
(8FF#L	.	(4A	.	(4cc#]	.	(2a	.	ii64
16FF#'L)	.	.	.	.	.	.	.	.
16BB'J	.	.	.	.	.	.	.	.
(8C#	.	4F#	.	4ff#	.	.	.	.
16C#'L)	.	.	.	.	.	.	.	.
16D#'JJ	.	.	.	.	.	.	.	.
(8EL	.	4G#	.	4ee	.	4g#	.	I
16E'L)	.	.	.	.	.	.	.	.
16D#'J	.	.	.	.	.	.	.	.
(8C#	.	4c#)	.	8.gg#L	.	8.bL	.	vi
16C#'L)	.	.	.	.	.	.	.	.
16AA'JJ	.	.	.	16ff#Jk)	.	16aJk)	.	ii6
=88	=88	=88	=88	=88	=88	=88	=88	=88
(8BBL	.	[2B	.	(2ee	.	(2g#	.	V(64)
16BB'L)	.	.	.	.	.	.	.	.
16E'J	.	.	.	.	.	.	.	.
(8G#	.	.	.	.	.	.	.	.
16G#'L)	.	.	.	.	.	.	.	.
16A#X'JJ	.	.	.	.	.	.	.	.
(8BL	.	8B]	.	4dd#X	.	4f#)	.	V\\
16B'L)	.	8r	.	.	.	.	.	.
16An'J	.	.	.	.	.	.	.	.
(8G#	.	4r	.	4ddn)	.	4r	.	iiio
16G#'L)	.	.	.	.	.	.	.	.
16F#'JJ	.	.	.	.	.	.	.	.
=89	=89	=89	=89	=89	=89	=89	=89	=89
(8E#XL	.	4r	.	(2.cc#	.	(2b	.	V65/ii
16E#'L)	.	.	.	.	.	.	.	.
16D#'J	.	.	.	.	.	.	.	.
(8C#	.	(4G#	.	.	.	.	.	.
16C#'L)	.	.	.	.	.	.	.	.
16E#'JJ	.	.	.	.	.	.	.	.
(8F#L	.	4F#	.	.	.	2a	.	ii
16F#'L)	.	.	.	.	.	.	.	.
16En'J	.	.	.	.	.	.	.	.
(8D#	.	4A)	.	8.b#XL	.	.	.	.
16D#'L)	.	.	.	.	.	.	.	.
16C#'JJ	.	.	.	16cc#Jk)	.	.	.	.
=90	=90	=90	=90	=90	=90	=90	=90	=90
!LO:TX:b:i:t=cresc.	!	!LO:TX:b:i:t=cresc.	!	!LO:TX:b:i:t=cresc.	!	!LO:TX:b:i:t=cresc.	!	!
(8BB#XL	.	(2G#	.	(2dd#	.	2f#	.	V65/vi
16BB#'L)	.	.	.	.	.	.	.	.
16AA#X'J	.	.	.	.	.	.	.	.
(8GG#	.	.	.	.	.	.	.	.
16GG#'L)	.	.	.	.	.	.	.	.
16FF#'JJ	.	.	.	.	.	.	.	.
(8EEL	.	2G#)	.	4ee	.	2g#)	.	vi(4)
16EE'L)	.	.	.	.	.	.	.	.
16DD#'J	.	.	.	.	.	.	.	.
(8CC#	.	.	.	4ff#)	.	.	.	.
16CC#'L)	.	.	.	.	.	.	.	.
16BBB#X'JJ	.	.	.	.	.	.	.	.
=91	=91	=91	=91	=91	=91	=91	=91	=91
(8CC#XL	f	(4c#	f	2ee	f	2e	f	#viio/V
16CC#'L)	.	.	.	.	.	.	.	.
16EE'J	.	.	.	.	.	.	.	.
(8AA#X	.	4A#X)	.	.	.	.	.	.
16AA#'L)	.	.	.	.	.	.	.	.
16C#'JJ	.	.	.	.	.	.	.	.
(8BBnL	>	[4An	>	(4aa	>	4..f#	>	V7
16BB'L)	.	.	.	.	.	.	.	.
16D#'J	.	.	.	.	.	.	.	.
(8F#	.	8.AL]	.	8.ff#L	.	.	.	.
16F#'L)	.	.	.	.	.	.	.	.
16B'JJ	]]	16BJk	]]	16gg#Jk)	]]	16g#	]]	.
=92	=92	=92	=92	=92	=92	=92	=92	=92
8EE'L	p	4G#	p	(2ee	p	4e	p	I
16r	.	.	.	.	.	.	.	.
16G#'K	.	.	.	.	.	.	.	.
8E'	.	4r	.	.	.	4r	.	.
16r	.	.	.	.	.	.	.	.
16G#'Jk	.	.	.	.	.	.	.	.
!	!	!	!	!LO:TX:b:i:t=espress.	!	!	!	!
8BB'L	.	2r	.	2gg#	.	2r	.	I64
16r	.	.	.	.	.	.	.	.
16G#'K	.	.	.	.	.	.	.	.
8E'	.	.	.	.	.	.	.	.
16r	.	.	.	.	.	.	.	.
16G#'Jk	.	.	.	.	.	.	.	.
=93	=93	=93	=93	=93	=93	=93	=93	=93
!LO:TX:a:i:t=sempre staccato	!	!	!	!	!	!LO:TX:b:i:t=espress.	!	!
8BBL	.	1r	.	(2.bb)	.	(2b	.	V7
16r	.	.	.	.	.	.	.	.
16F#K	.	.	.	.	.	.	.	.
8D#	.	.	.	.	.	.	.	.
16r	.	.	.	.	.	.	.	.
16F#Jk	.	.	.	.	.	.	.	.
8BBL	.	.	.	.	.	2dd#	.	.
16r	.	.	.	.	.	.	.	.
16AK	.	.	.	.	.	.	.	.
8F#	.	.	.	8.ccc#L	.	.	.	.
16r	.	.	.	.	.	.	.	.
16AJk	.	.	.	16aaJk)	.	.	.	.
=94	=94	=94	=94	=94	=94	=94	=94	=94
!	!	!LO:TX:b:i:t=espress.	!	!	!	!	!	!
8BBL	.	(2E	.	(4gg#t	.	2.ee	.	I64
16r	.	.	.	.	.	.	.	.
16G#K	.	.	.	.	.	.	.	.
8E	.	.	.	8.bbL	.	.	.	.
16r	.	.	.	.	.	.	.	.
16G#Jk	.	.	.	16gg#Jk	.	.	.	.
8BBL	.	2G#X	.	4ee)	.	.	.	.
16r	.	.	.	.	.	.	.	.
16G#K	.	.	.	.	.	.	.	.
8E	.	.	.	4r	.	8.dd#L	.	.
16r	.	.	.	.	.	.	.	.
16G#Jk	.	.	.	.	.	16cc#Jk)	.	.
=95	=95	=95	=95	=95	=95	=95	=95	=95
8BBL	.	2B	.	1r	.	(4b	.	V7
16r	.	.	.	.	.	.	.	.
16AK	.	.	.	.	.	.	.	.
8F#	.	.	.	.	.	8.ff#L	.	.
16r	.	.	.	.	.	.	.	.
16AJk	.	.	.	.	.	16dd#Jk	.	.
8BBL	.	2d#)	.	.	.	4b	.	.
16r	.	.	.	.	.	.	.	.
16AK	.	.	.	.	.	.	.	.
8F#	.	.	.	.	.	8.cc#L	.	.
16r	.	.	.	.	.	.	.	.
16AJk	.	.	.	.	.	16aJk)	.	.
=96	=96	=96	=96	=96	=96	=96	=96	=96
8EL	.	(2.e	.	(2e	.	(4g#t	.	I
16r	.	.	.	.	.	.	.	.
16BK	.	.	.	.	.	.	.	.
8G#	.	.	.	.	.	8.bL	.	.
16r	.	.	.	.	.	.	.	.
16BJk	.	.	.	.	.	16g#Jk	.	.
8EL	.	.	.	2g#)	.	4e)	.	.
16r	.	.	.	.	.	.	.	.
16BK	.	.	.	.	.	.	.	.
8G#	.	(8.dnL)	.	.	.	4r	.	V7/IV
16r	.	.	.	.	.	.	.	.
16BJk	.	16c#Jk)	.	.	.	.	.	.
=97	=97	=97	=97	=97	=97	=97	=97	=97
8EL	.	(8.BL	.	[1g# [1b	.	(2ee	.	.
16r	.	.	.	.	.	.	.	.
16dnK	.	16AK	.	.	.	.	.	.
8B	.	8.G#	.	.	.	.	.	.
16r	.	.	.	.	.	.	.	.
16dJk	.	16F#Jk	.	.	.	.	.	.
8EL	.	4E	.	.	.	4gg#	.	.
16r	.	.	.	.	.	.	.	.
16BK	.	.	.	.	.	.	.	.
8G#	.	4Dn)	.	.	.	8.bbL	.	.
16r	.	.	.	.	.	.	.	.
16BJk	.	.	.	.	.	16ccc#Jk	.	.
=98	=98	=98	=98	=98	=98	=98	=98	=98
8E#XL	.	1C#	.	2.g#] 2.b]	.	8.bbL	.	V65/ii
16r	.	.	.	.	.	.	.	.
16c#K	.	.	.	.	.	16aaK	.	.
8G#	.	.	.	.	.	8.gg#	.	.
16r	.	.	.	.	.	.	.	.
16c#Jk	.	.	.	.	.	16ff#Jk	.	.
8C#L	.	.	.	.	.	2ee#X)	.	V7/ii
16r	.	.	.	.	.	.	.	.
16G#K	.	.	.	.	.	.	.	.
8E#	.	.	.	(8.cc#L	.	.	.	.
16r	.	.	.	.	.	.	.	.
16G#Jk	.	.	.	16bJk)	.	.	.	.
=99	=99	=99	=99	=99	=99	=99	=99	=99
!LO:TX:b:i:t=cresc.	!	!LO:TX:b:i:t=cresc.	!	!LO:TX:b:i:t=cresc.	!	!LO:TX:b:i:t=cresc.	!	!
(2FF#	.	8C#'L	.	(8.aL	.	1ff#	.	ii6
.	.	16r	.	.	.	.	.	.
.	.	16A'K	.	16g#K	.	.	.	.
.	.	8F#'	.	8.f#	.	.	.	.
.	.	16r	.	.	.	.	.	.
.	.	16A'Jk	.	16eJk	.	.	.	.
2AA)	.	8F#'L	.	4d#	.	.	.	.
.	.	16r	.	.	.	.	.	.
.	.	16A'K	.	.	.	.	.	.
.	.	8F#'	.	4c#)	.	.	.	.
.	.	16r	.	.	.	.	.	.
.	.	16A'Jk	.	.	.	.	.	.
=100	=100	=100	=100	=100	=100	=100	=100	=100
4GG#	f	4D#	f	4B#X	f	4gg#	f	V/vi
8.BB#XL	p	8.D#L	p	8.g#XL	p	8.gg#L	p	V6/vi
16BB#Jk	.	16D#Jk	.	16g#Jk	.	16ff#Jk	.	.
8.C#L	.	8.EL	.	8.g#L	.	8.eenL	.	vi
16D#K	.	16A#XK	.	16gnK	.	16dd#K	.	VII
8.D#	.	8.A#	.	8.g	.	8.cc#	.	VII7
16D#Jk	.	16A#Jk	.	16gJk	.	16dd#Jk	.	VII
=101	=101	=101	=101	=101	=101	=101	=101	=101
!LO:TX:b:i:t=cresc.	!	!LO:TX:b:i:t=cresc.	!	!LO:TX:b:i:t=cresc.	!	!LO:TX:a:i:t=cresc.	!	!
4GG#	.	4G#	.	4g#X	.	8.b#XL	.	V/vi
.	.	.	.	.	.	16aaK	.	.
8.BB#XL	.	8.D#L	.	8.g#L	.	8.gg#	.	V6/vi
16BB#Jk	.	16D#Jk	.	16g#Jk	.	16ff#Jk	.	.
8.C#L	.	8.EL	.	8.g#L	.	8.eeL	.	vi
16F#K	.	16AnK	.	16aK	.	16dd#K	.	ii(6)
8.F#	.	8.A	.	8.a	.	8.cc#	.	ii
16F#Jk	.	16AJk	.	16d#Jk 16a	.	16ccnJk	.	viio65
=102	=102	=102	=102	=102	=102	=102	=102	=102
4F#	fp	4A	fp	4d# 4a	fp	4bn	fp	V43
8.D#L	.	8.f#L	.	8.bL	.	8.bbL	.	V65
16D#Jk	.	16f#Jk	.	16bJk	.	16aaJk	.	.
8.EL	.	8.g#L	.	8.bL	.	8.gg#L	.	I
16F#K	.	16c#K	.	16a#XK	.	16ff#K	.	V/V
8.F#	.	8.c#	.	8.a#	.	8.ee	.	V7/V
16F#Jk	.	16c#Jk	.	16a#Jk	.	16ff#Jk	.	V/V
=103	=103	=103	=103	=103	=103	=103	=103	=103
1Bn	.	4B	.	4b	.	(8.dd#L	<	i.V
.	.	.	.	.	.	16cccnK	.	.
.	.	8.d#L	.	8.f#L	.	8.bb)	[ >	.
.	.	16d#Jk	.	16f#Jk	.	16aaJk	.	.
.	.	8.eL	.	8.gnL	.	8.ggnL	]	V(64)
.	.	16f#K	.	16a#XK	.	16ff#K	.	.
.	.	8.gn	.	8.a#	.	8.ee	.	.
.	.	16f#Jk	.	16a#Jk	.	16ff#Jk	.	.
=104	=104	=104	=104	=104	=104	=104	=104	=104
!LO:TX:a:i:t=cresc.	!	!LO:TX:b:i:t=cresc.	!	!LO:TX:b:i:t=cresc.	!	!LO:TX:b:i:t=cresc.	!	!
(8.BL	.	(4f#	.	(4b	.	(4dd#	.	V
16ccnJk	.	.	.	.	.	.	.	.
8.bL)	.	[4b	.	4dd#	.	4ff#	.	.
16aJk	.	.	.	.	.	.	.	.
8.g#L	.	4b]	.	4ee	.	4ggn	.	V(64)
16f#K	.	.	.	.	.	.	.	.
8.e	.	4cc#)	.	4ggn)	.	4aa#X)	.	#viio65/V
16f#Jk	.	.	.	.	.	.	.	.
=105	=105	=105	=105	=105	=105	=105	=105	=105
8.d#L	.	4f#	.	4ff#	.	[1bb	.	I.V65
16eK	.	.	.	.	.	.	.	.
8.f#	.	8.d#L	.	8.ff#L	.	.	.	.
16g#Jk	.	16eJk	.	16eeJk	.	.	.	.
8.aL	.	8.f#L	.	8.dd#L	.	.	.	.
16d#K	.	16BK	.	16cc#K	.	.	.	.
8.e	.	8.c#	.	8.b	.	.	.	.
16f#Jk	.	16d#Jk	.	16aanJk	.	.	.	.
=106	=106	=106	=106	=106	=106	=106	=106	=106
4..g#	p	4..e	p	4gg#X	p	8bbL]	p	I
.	.	.	.	.	.	(16ccc#L	.	.
.	.	.	.	.	.	16ddd#JJ	.	.
.	.	.	.	4r	.	16eeeLL	.	.
.	.	.	.	.	.	16fff#	.	.
.	.	.	.	.	.	16ggg#	.	.
16f#	.	16B	.	.	.	16aaanJJ	.	.
8..eL	.	8..G#L	.	2r	.	[2bbb)	.	.
32BKK	.	32G#KK	.	.	.	.	.	.
8..e	.	8..G#	.	.	.	.	.	.
32f#Jkk	.	32d#Jkk	.	.	.	.	.	.
=107	=107	=107	=107	=107	=107	=107	=107	=107
(4..g#	.	(4..e	.	1r	.	(16bbbLL]	.	.
.	.	.	.	.	.	16aaa	.	.
.	.	.	.	.	.	16ggg#	.	.
.	.	.	.	.	.	16fff#JJ	.	.
.	.	.	.	.	.	16eeeLL	.	.
.	.	.	.	.	.	16ddd#	.	.
.	.	.	.	.	.	16ccc#	.	.
16a	.	16f#	.	.	.	16bbJJ	.	.
2b)	.	2g#)	.	.	.	16eeeLL	.	I6
.	.	.	.	.	.	16ddd#	.	.
.	.	.	.	.	.	16ccc#	.	.
.	.	.	.	.	.	16bbJJ	.	.
.	.	.	.	.	.	16aaLL	.	.
.	.	.	.	.	.	16gg#	.	.
.	.	.	.	.	.	16ff#	.	.
.	.	.	.	.	.	16eeJJ)	.	.
=108	=108	=108	=108	=108	=108	=108	=108	=108
(4.cc#	>	(4.a	>	1r	.	(16dd#LL	.	IV
.	.	.	.	.	.	16cc#	.	.
.	.	.	.	.	.	16b#X	.	.
.	.	.	.	.	.	16cc#JJ	.	.
.	.	.	.	.	.	16ee#XLL	.	.
.	.	.	.	.	.	16ff#	.	.
8c#)	.	8A)	.	.	.	16aa	.	.
.	.	.	.	.	.	[16ccc#JJ)	.	.
((4e	]	4B	]	.	.	(16ccc#LL]	.	V(64)
.	.	.	.	.	.	16een	.	.
.	.	.	.	.	.	16gg#	.	.
.	.	.	.	.	.	[16bbJJ)	.	.
4d#))	.	4B	.	.	.	16bbLL]	.	V
.	.	.	.	.	.	(16ff#	.	.
.	.	.	.	.	.	16bb	.	.
.	.	.	.	.	.	16aaJJ)	.	.
=109	=109	=109	=109	=109	=109	=109	=109	=109
!	!LO:DY:a	!	!LO:DY:a	!	!	!	!	!
4..E	f f	4..e	f	4..b	.	4..gg#	f	I\\
16F#X	.	16B	.	16a	.	16ff#	.	V43
8..G#XL	.	8..BL	.	8..g#L	.	8..eeL	.	I6
32AKK	.	32BKK	.	32f#KK	.	32bKK	.	V2
8..G#X	.	8..B	.	8..g#	.	8..ee	.	I6
32F#XJkk	.	32BJkk	.	32dd#Jkk	.	32ff#Jkk	.	V43
=110	=110	=110	=110	=110	=110	=110	=110	=110
(4..E	>	1B	>]	(4..ee	>	(4..gg#	>	I
16D#	.	.	.	16ff#	.	16aa	.	V65
8..C#L	.	.	.	2gg#)	]]	2bb)	]]	V7/ii
32BBKK	.	.	.	.	.	.	.	.
8..AA	.	.	.	.	.	.	.	.
32GG#Jkk)	]]	.	.	.	.	.	.	.
=111	=111	=111	=111	=111	=111	=111	=111	=111
!	!LO:DY:a	!	!	!	!	!	!	!
(8.FF#L	p p	(8.AL	.	(4.aa	p	(4.ccc#	p	ii
16GG#K	.	16BK	.	.	.	.	.	.
8AA	.	8c#	.	.	.	.	.	.
8AA#XJ)	.	8GnJ)	.	8e)	.	8cc#)	.	#viio7/V
!LO:TX:b:i:t=cresc.	!	!LO:TX:b:i:t=cresc.	!	!LO:TX:b:i:t=cresc.	!	!LO:TX:b:i:t=cresc.	!	!
(4BB	.	(4G#X	.	(4e	.	(4ee	.	V(64)
4B)	.	4g#)	.	4b)	.	4e#X) 4ddn	.	#viio2/ii
=112	=112	=112	=112	=112	=112	=112	=112	=112
(4B'	p	4g#	p	(4b'	p	(4e#X' 4ddn	p	.
4r	.	8.bL	.	4r	.	4r	.	.
.	.	16BJk	.	.	.	.	.	.
4f#'	.	4B	.	4a'	.	4cc#'	.	ii
4r	.	8.bL	.	4r	.	4r	.	.
.	.	16BJk	.	.	.	.	.	.
=113	=113	=113	=113	=113	=113	=113	=113	=113
!LO:TX:b:i:t=mancando	!	!	!	!LO:TX:a:i:t=mancando	!	!LO:TX:b:i:t=mancando	!	!
4d#X'	.	4B	.	4a'	.	4ccn'	.	V9
4r	.	8.bL	.	4r	.	4r	.	.
.	.	16BJk	.	.	.	.	.	.
4e')	.	4B	.	4g#')	.	4b')	.	I
4r	.	8.bL	.	4r	.	4r	.	.
.	.	16BJk	.	.	.	.	.	.
=114	=114	=114	=114	=114	=114	=114	=114	=114
!LO:TX:b:i:t=poco cresc.	!	!	!	!	!	!	!	!
(2ddn	.	4B	.	(2ee#X	.	(2gg#X	.	#viio43/ii
.	.	8.bL	.	.	.	.	.	.
.	.	16BJk	.	.	.	.	.	.
12cc#L	.	4B	.	[4ff#)	.	[4aa)	.	V7
12b	.	.	.	.	.	.	.	.
12aJ	.	.	.	.	.	.	.	.
12g#L	.	8.bL	.	(12ff#L]	.	(12aaL]	.	.
12f#	.	.	.	12gg#	.	12bb	.	.
12eJ)	.	.	.	12aaJ)	.	12ccc#J)	.	.
.	.	16BJk	.	.	.	.	.	.
=115	=115	=115	=115	=115	=115	=115	=115	=115
!LO:TX:b:i:t=più cresc.	!	!LO:TX:b:i:t=cresc.	!	!LO:TX:b:i:t=cresc.	!	!LO:TX:b:i:t=cresc.	!	!
(4d#	.	4B	.	(4aa	.	(4ccc#	.	V9
4ccn	.	8.bL	.	4dd#	.	4ff#	.	V
.	.	16BJk	.	.	.	.	.	.
12bL	.	4B	.	4een	.	4gg#	.	I64
12a	.	.	.	.	.	.	.	.
12g#J	.	.	.	.	.	.	.	.
12f#L	.	8.bL	.	4ff#)	.	4aa)	.	V
12e	.	.	.	.	.	.	.	.
12d#J)	.	.	.	.	.	.	.	.
.	.	16BJk	.	.	.	.	.	.
=116	=116	=116	=116	=116	=116	=116	=116	=116
(2e	p	(2g#	p	4ee	p	(12gg#L	p	I6
.	.	.	.	.	.	12aa	.	.
.	.	.	.	.	.	12bbJ	.	.
.	.	.	.	4r	.	12ccc#L	.	.
.	.	.	.	.	.	12ddd#	.	.
.	.	.	.	.	.	12eeeJ	.	.
2B)	.	2d#)	.	(4f#	.	12ddd#L	.	V7
.	.	.	.	.	.	12ccc#	.	.
.	.	.	.	.	.	12bbJ	.	.
.	.	.	.	8.bL	.	12aaL	.	.
.	.	.	.	.	.	12gg#	.	.
.	.	.	.	.	.	12ff#J)	.	.
.	.	.	.	16aJk	.	.	.	.
=117	=117	=117	=117	=117	=117	=117	=117	=117
(2c#	.	(2e	.	4g#)	.	(12eeL	.	vi
.	.	.	.	.	.	12ff#	.	.
.	.	.	.	.	.	12gg#J	.	.
.	.	.	.	4r	.	12aaL	.	.
.	.	.	.	.	.	12bb	.	.
.	.	.	.	.	.	12ccc#J	.	.
2G#)	.	2B)	.	(4B	.	12bbL	.	iii
.	.	.	.	.	.	12aa	.	.
.	.	.	.	.	.	12gg#J	.	.
.	.	.	.	8.eL	.	12ff#L	.	.
.	.	.	.	.	.	12ee	.	.
.	.	.	.	.	.	12dd#J)	.	.
.	.	.	.	16d#Jk)	.	.	.	.
=118	=118	=118	=118	=118	=118	=118	=118	=118
(2A	.	(2c#	.	(4..c#	.	(12cc#L	.	IV
.	.	.	.	.	.	12dd#	.	.
.	.	.	.	.	.	12eeJ	.	.
.	.	.	.	.	.	12ff#L	.	.
.	.	.	.	.	.	12gg#	.	.
.	.	.	.	.	.	12aaJ	.	.
.	.	.	.	16d#	.	.	.	.
2E)	.	2G#)	.	[4e	.	12gg#L	.	I
.	.	.	.	.	.	12ff#	.	.
.	.	.	.	.	.	12eeJ	.	.
.	.	.	.	12eL]	.	12dd#L	.	.
.	.	.	.	12f#	.	12cc#	.	.
.	.	.	.	12g#J)	.	12bJ)	.	.
=119	=119	=119	=119	=119	=119	=119	=119	=119
2F#	.	(4d#X	.	(12aL	.	2.a	.	V43
.	.	.	.	12g#	.	.	.	.
.	.	.	.	[12f#J)	.	.	.	.
.	.	12eL	.	4f#_	.	.	.	.
.	.	12d#	.	.	.	.	.	.
.	.	12c#J	.	.	.	.	.	.
(12BL	.	2B)	.	4f#]	.	.	.	.
12A	.	.	.	.	.	.	.	.
12G#J	.	.	.	.	.	.	.	.
12F#L	.	.	.	[4a	.	[4ff#	.	.
12E	.	.	.	.	.	.	.	.
12D#J)	.	.	.	.	.	.	.	.
=120	=120	=120	=120	=120	=120	=120	=120	=120
!LO:TX:b:i:t=cresc.	!	!	!	!	!	!	!	!
(12C#L	.	2.f#	.	4a]	.	4ff#]	.	V7
12BB	.	.	.	.	.	.	.	.
12AAJ	.	.	.	.	.	.	.	.
!	!	!	!	!LO:TX:b:i:t=cresc.	!	!LO:TX:b:i:t=cresc.	!	!
12GG#L	.	.	.	(2a	.	(2aa	.	.
12FF#	.	.	.	.	.	.	.	.
12EEJ	.	.	.	.	.	.	.	.
12DD#L	.	.	.	.	.	.	.	.
12CC#	.	.	.	.	.	.	.	.
12BBB#XJ	.	.	.	.	.	.	.	.
!	!	!LO:TX:b:i:t=cresc.	!	!	!	!	!	!
12CC#L	.	[4a	.	[4ff#)	.	[4fff#)	.	.
12DD#	.	.	.	.	.	.	.	.
12EEJ)	.	.	.	.	.	.	.	.
=121	=121	=121	=121	=121	=121	=121	=121	=121
(12FF#L	.	(4a]	.	(4ff#]	.	(4fff#]	.	.
12EE	.	.	.	.	.	.	.	.
12DD#J	.	.	.	.	.	.	.	.
12EEL	.	4g#	.	4b 4ee	.	4eee	.	I
12FF#	.	.	.	.	.	.	.	.
12GG#J	.	.	.	.	.	.	.	.
12AAL	.	4e	.	4a 4cc#	.	4ccc#	.	IV
12BBn	.	.	.	.	.	.	.	.
12C#J	.	.	.	.	.	.	.	.
12D#L	.	4f#)	.	[4b)	.	4bb)	.	V6
12E	.	.	.	.	.	.	.	.
12F#J)	.	.	.	.	.	.	.	.
=122	=122	=122	=122	=122	=122	=122	=122	=122
(12EL	.	(4g#	.	(4b]	.	(4gg#	.	I
12F#	.	.	.	.	.	.	.	.
12G#J	.	.	.	.	.	.	.	.
12AL	.	4c#)	.	4a)	.	4ff#)	.	ii6
12B	.	.	.	.	.	.	.	.
12c#J)	.	.	.	.	.	.	.	.
[2B	f	(12BL	f	(12g#L	f	[2ee	f	V(64)
.	.	12d#	.	12f#	.	.	.	.
.	.	12eJ	.	12g#J	.	.	.	.
.	.	12f#L	.	12aL	.	.	.	.
.	.	12g#	.	12b	.	.	.	.
.	.	12aJ)	.	12cc#J)	.	.	.	.
=123	=123	=123	=123	=123	=123	=123	=123	=123
1B_	>]	2g#	>	2b	>	(12eeL]	>	.
.	.	.	.	.	.	12ff#	.	.
.	.	.	.	.	.	12gg#J	.	.
.	.	.	.	.	.	12aaL	.	.
.	.	.	.	.	.	12bb	.	.
.	.	.	.	.	.	12ccc#J	.	.
.	.	[2e	]]	[2g#	]]	12bbL	.	.
.	.	.	.	.	.	12ccc#	.	.
.	.	.	.	.	.	12ddd#J	.	.
.	.	.	.	.	.	12eeeL	.	.
.	.	.	.	.	.	12fff#	.	.
.	.	.	.	.	.	12ggg#J	]]	.
=124	=124	=124	=124	=124	=124	=124	=124	=124
1B_	p	1e_	p	1g#_	p	12aaaL	p	.
.	.	.	.	.	.	12bbb	.	.
.	.	.	.	.	.	12cccc#J	.	.
.	.	.	.	.	.	12bbbL	.	.
.	.	.	.	.	.	12aaa	.	.
.	.	.	.	.	.	12ggg#J	.	.
.	.	.	.	.	.	12fff#L	.	.
.	.	.	.	.	.	12eee	.	.
.	.	.	.	.	.	12ddd#J	.	.
.	.	.	.	.	.	12ccc#L	.	.
.	.	.	.	.	.	12bb	.	.
.	.	.	.	.	.	12aaJ)	.	.
=125	=125	=125	=125	=125	=125	=125	=125	=125
1B_	.	2e]	.	2g#]	.	(12gg#L	.	.
.	.	.	.	.	.	12ff#	.	.
.	.	.	.	.	.	12eeJ	.	.
.	.	.	.	.	.	12dd#L	.	.
.	.	.	.	.	.	12cc#	.	.
.	.	.	.	.	.	12bJ	.	.
.	.	[2f# [2a	.	[2dd#	.	12aL	.	V7
.	.	.	.	.	.	12g#	.	.
.	.	.	.	.	.	12f#J	.	.
.	.	.	.	.	.	12eL	.	.
.	.	.	.	.	.	12d#	.	.
.	.	.	.	.	.	12c#J)	.	.
=126	=126	=126	=126	=126	=126	=126	=126	=126
1B_	.	1f#_ 1a_	.	1dd#_	.	(12BL	.	.
.	.	.	.	.	.	12cn	.	.
.	.	.	.	.	.	12c#XJ	.	.
.	.	.	.	.	.	12dnL	.	.
.	.	.	.	.	.	12d#X	.	.
.	.	.	.	.	.	12eJ	.	.
.	.	.	.	.	.	12e#XL	.	.
.	.	.	.	.	.	12f#	.	.
.	.	.	.	.	.	12gnJ	.	.
.	.	.	.	.	.	12g#XL	.	.
.	.	.	.	.	.	12a	.	.
.	.	.	.	.	.	12a#XJ)	.	.
=127	=127	=127	=127	=127	=127	=127	=127	=127
1B_	.	1f#_ 1a_	.	1dd#_	.	(4b'	.	.
.	.	.	.	.	.	4b#X'	.	.
.	.	.	.	.	.	4dd#'	.	.
.	.	.	.	.	.	4cc#')	.	.
=128	=128	=128	=128	=128	=128	=128	=128	=128
!LO:TX:a:i:t=cresc.	!	!LO:TX:a:i:t=cresc.	!	!LO:TX:b:i:t=cresc.	!	!LO:TX:b:i:t=cresc.	!	!
4B]	.	4f#] 4a]	.	4dd#]	.	(4bn'	.	.
(4BB'	.	(4F#'	.	(4A'	.	4an'	.	.
4BB'	.	4F#'	.	4A'	.	4f#'	.	.
4BB')	.	4F#')	.	4A')	.	4d#')	.	.
=129	=129	=129	=129	=129	=129	=129	=129	=129
12EE'L	p	1G#	p	1B	p	([4dn	p	V7/IV
12EE'	.	.	.	.	.	.	.	.
12EE'J	.	.	.	.	.	.	.	.
8EE'	.	.	.	.	.	12dL]	.	.
.	.	.	.	.	.	12b	.	.
8r	.	.	.	.	.	.	.	.
.	.	.	.	.	.	12g#J)	.	.
12EE'L	.	.	.	.	.	([4d	.	.
12EE'	.	.	.	.	.	.	.	.
12EE'J	.	.	.	.	.	.	.	.
8EE'	.	.	.	.	.	12dL]	.	.
.	.	.	.	.	.	12e	.	.
8r	.	.	.	.	.	.	.	.
.	.	.	.	.	.	12dJ)	.	.
=130	=130	=130	=130	=130	=130	=130	=130	=130
12EE'L	.	(2E	.	[2A	.	([4cn	.	i[iv64
12EE'	.	.	.	.	.	.	.	.
12EE'J	.	.	.	.	.	.	.	.
8EE'	.	.	.	.	.	12cL]	.	.
.	.	.	.	.	.	12e	.	.
8r	.	.	.	.	.	.	.	.
.	.	.	.	.	.	12aJ)	.	.
12EE'L	.	2D#)	.	2A]	.	([4d#X	.	viio
12EE'	.	.	.	.	.	.	.	.
12EE'J	.	.	.	.	.	.	.	.
8EE'	.	.	.	.	.	12d#L]	.	.
.	.	.	.	.	.	12f#	.	.
8r	.	.	.	.	.	.	.	.
.	.	.	.	.	.	12bJ)	.	.
=131	=131	=131	=131	=131	=131	=131	=131	=131
12EE'L	.	([4Dn	.	2G#	.	(2b	.	V2/iv
12EE'	.	.	.	.	.	.	.	.
12EE'J	.	.	.	.	.	.	.	.
8EE'	.	12DL]	.	.	.	.	.	.
.	.	12B	.	.	.	.	.	.
8r	.	.	.	.	.	.	.	.
.	.	12G#XJ)	.	.	.	.	.	.
12EE'L	.	([4D	.	2g#	.	[2ee)	.	.
12EE'	.	.	.	.	.	.	.	.
12EE'J	.	.	.	.	.	.	.	.
8EE'	.	12DL]	.	.	.	.	.	.
.	.	12E	.	.	.	.	.	.
8r	.	.	.	.	.	.	.	.
.	.	12DJ)	.	.	.	.	.	.
=132	=132	=132	=132	=132	=132	=132	=132	=132
12EE'L	.	([4Cn	.	(2ccn	.	(2ee] 1a	.	iv6
12EE'	.	.	.	.	.	.	.	.
12EE'J	.	.	.	.	.	.	.	.
8EE'	.	12CL]	.	.	.	.	.	.
.	.	12E	.	.	.	.	.	.
8r	.	.	.	.	.	.	.	.
.	.	12AJ)	.	.	.	.	.	.
12EE'L	.	([4D#X	.	2b)	.	2ff#)	.	V6
12EE'	.	.	.	.	.	.	.	.
12EE'J	.	.	.	.	.	.	.	.
8EE'	.	12D#L]	.	.	.	.	.	.
.	.	12F#	.	.	.	.	.	.
8r	.	.	.	.	.	.	.	.
.	.	12BJ)	.	.	.	.	.	.
=133	=133	=133	=133	=133	=133	=133	=133	=133
12EE'L	.	([4E	.	4b	.	(4g# 4ee	.	I
12EE'	.	.	.	.	.	.	.	.
12EE'J	.	.	.	.	.	.	.	.
8EE'	.	12EL]	.	(4b	.	2gg#	.	V65
.	.	12D#X	.	.	.	.	.	.
8r	.	.	.	.	.	.	.	.
.	.	12EJ)	.	.	.	.	.	.
12EE'L	.	([4D#	.	2a)	.	.	.	.
12EE'	.	.	.	.	.	.	.	.
12EE'J	.	.	.	.	.	.	.	.
8EE'	.	12D#L]	.	.	.	4ff#)	.	.
.	.	12C#X	.	.	.	.	.	.
8r	.	.	.	.	.	.	.	.
.	.	12D#J)	.	.	.	.	.	.
=134	=134	=134	=134	=134	=134	=134	=134	=134
12EE'L	.	([4E	.	(4g#	.	(4ee	.	I
12EE'	.	.	.	.	.	.	.	.
12EE'J	.	.	.	.	.	.	.	.
8EE'	.	12EL]	.	4b	.	2gg#	.	viio(4)
.	.	12D#	.	.	.	.	.	.
8r	.	.	.	.	.	.	.	.
.	.	12EJ)	.	.	.	.	.	.
12EE'L	.	([4D#	.	2a)	.	.	.	.
12EE'	.	.	.	.	.	.	.	.
12EE'J	.	.	.	.	.	.	.	.
8EE'	.	12D#L]	.	.	.	4ff#X)	.	viio
.	.	12C#	.	.	.	.	.	.
8r	.	.	.	.	.	.	.	.
.	.	12D#J)	.	.	.	.	.	.
=135	=135	=135	=135	=135	=135	=135	=135	=135
!	!	!LO:TX:b:i:t=cresc.	!	!LO:TX:b:i:t=cresc.	!	!LO:TX:b:i:t=cresc.	!	!
8EE	.	(12EL	.	2g#	.	2ee	.	I]
.	.	12F#	.	.	.	.	.	.
8r	.	.	.	.	.	.	.	.
.	.	12G#J	.	.	.	.	.	.
4r	.	12AL	.	.	.	.	.	.
.	.	12B	.	.	.	.	.	.
.	.	12c#J	.	.	.	.	.	.
!LO:TX:b:i:t=cresc.	!	!	!	!	!	!	!	!
(12BL	.	2B)	.	2ee	.	2gg#	.	I64
12A	.	.	.	.	.	.	.	.
12G#J	.	.	.	.	.	.	.	.
12F#L	.	.	.	.	.	.	.	.
12E	.	.	.	.	.	.	.	.
12D#J	.	.	.	.	.	.	.	.
=136	=136	=136	=136	=136	=136	=136	=136	=136
12C#L	.	4A	.	[2a [2aa	.	[2ccc#	.	IV6
12BB	.	.	.	.	.	.	.	.
12AAJ	.	.	.	.	.	.	.	.
12GG#L	.	4c#	.	.	.	.	.	.
12FF#	.	.	.	.	.	.	.	.
12EEJ	.	.	.	.	.	.	.	.
8DD#)	p	8F#	p	8a] 8aa]	p	8ccc#]	p	viio7
8r	.	8r	.	8r	.	8r	.	.
!LO:TX:b:i:t=cresc.	!	!LO:TX:b:i:t=cresc.	!	!LO:TX:a:i:t=cresc.	!	!LO:TX:b:i:t=cresc.	!	!
8EE	.	8G#	.	8g#	.	8bb	.	I
8r	.	8r	.	8r	.	8r	.	.
=137	=137	=137	=137	=137	=137	=137	=137	=137
8FF#	.	8A	.	8d#	.	8aa	.	viio6
8r	.	8r	.	8r	.	8r	.	.
8GG#	.	8B	.	8e	.	8gg#	.	I6
8r	.	8r	.	8r	.	8r	.	.
8AA	.	8c#	.	8f#	.	8ff#	.	ii6
8r	.	8r	.	8r	.	8r	.	.
8AA#X	.	8c#	.	8gn	.	8ee	.	#viio7/V
8r	.	8r	.	8r	.	8r	.	.
=138	=138	=138	=138	=138	=138	=138	=138	=138
2BB	ff	2B	ff	2g#X	ff	2e 2ee	ff	V(64)
!	!LO:DY:a	!	!	!	!LO:DY:a	!	!	!
[2Cn	sf sf	[2A	.	[2f# [2a	sf sf	2dd#	.	viio2
=139	=139	=139	=139	=139	=139	=139	=139	=139
2C]	.	2A]	.	2f#] 2a]	.	2ff#	.	.
!	!LO:DY:a	!	!LO:DY:a	!	!	!	!	!
[2C#X	sf sf	[2c#	sf	2g#	.	2e 2ee	sf	vi
=140	=140	=140	=140	=140	=140	=140	=140	=140
2C#]	.	2c#]	.	2e 2cc#	.	2aa	.	IV6
[2E#X	sf	[2dn	sf	[2b	sf	4..gg#	sf	#viio7/ii
.	.	.	.	.	.	16aa	.	.
=141	=141	=141	=141	=141	=141	=141	=141	=141
2E#]	.	2d]	.	2b]	.	(2gg#	.	.
[2F#	sf sf	[2d#X	sf	[2a 2a	.	4ff#)	sf	viio6
.	.	.	.	.	.	4r	.	.
=142	=142	=142	=142	=142	=142	=142	=142	=142
2F#]	.	2d#]	.	2a]	.	2bb	.	V43
!	!LO:DY:a	!	!LO:DY:a	!	!LO:DY:a	!	!	!
[2BB#X	sf sf	[2A	sf	[2f# [2dd#	sf	(2a 2aa	.	#viio7/vi
=143	=143	=143	=143	=143	=143	=143	=143	=143
2BB#]	.	2A]	.	2f#] 2dd#]	.	2a) 2ff#	.	.
.	.	.	.	.	.	16qqb/	sf >	.
2BBn	sf > ]]	2G#	sf > ]]	2e 2ee	sf > ]]	[2gg#	]]	V(64)
=144	=144	=144	=144	=144	=144	=144	=144	=144
1BB	p	(2E	p	(2G#	p	16gg#LL]	p	.
.	.	.	.	.	.	(16ff#	.	.
.	.	.	.	.	.	16ee	.	.
.	.	.	.	.	.	16dd#JJ	.	.
.	.	.	.	.	.	16cc#LL	.	.
.	.	.	.	.	.	16b	.	.
.	.	.	.	.	.	16a	.	.
.	.	.	.	.	.	16g#JJ	.	.
.	.	4..F#	.	4..A	.	16f#LL	.	V7
.	.	.	.	.	.	16e	.	.
.	.	.	.	.	.	16d#	.	.
.	.	.	.	.	.	16c#JJ	.	.
.	.	.	.	.	.	16BLL	.	.
.	.	.	.	.	.	16cc#	.	.
.	.	.	.	.	.	16b	.	.
.	.	16G#)	.	16B)	.	16d#JJ)	.	.
=145	=145	=145	=145	=145	=145	=145	=145	=145
12EE'L	.	4E	.	4G#	.	([4e	.	I\\
12EE'	.	.	.	.	.	.	.	.
12EE'J	.	.	.	.	.	.	.	.
8EE'	.	12EL	.	12g#L	.	12eL]	.	.
.	.	12E	.	12g#	.	12b	.	.
8r	.	.	.	.	.	.	.	.
.	.	12EJ	.	12g#J	.	12g#J)	.	.
12EE'L	.	4r	.	4r	.	([4dn	.	V7/IV
12EE'	.	.	.	.	.	.	.	.
12EE'J	.	.	.	.	.	.	.	.
8EE'	.	12G#L	.	12bL	.	12dL]	.	.
.	.	12G#	.	12b	.	12e	.	.
8r	.	.	.	.	.	.	.	.
.	.	12G#J	.	12bJ	.	12dJ)	.	.
=146	=146	=146	=146	=146	=146	=146	=146	=146
12EE'L	.	4r	.	4r	.	(4cn	.	I[iv
12EE'	.	.	.	.	.	.	.	.
12EE'J	.	.	.	.	.	.	.	.
8EE'	.	12AL	.	12cc#L	.	12c#XL	.	IV
.	.	12A	.	12cc#	.	12e	.	.
8r	.	.	.	.	.	.	.	.
.	.	12AJ	.	12cc#J	.	12aJ)	.	.
12EE'L	.	4r	.	4r	.	([4d#	.	V2
12EE'	.	.	.	.	.	.	.	.
12EE'J	.	.	.	.	.	.	.	.
8EE'	.	12AL	.	12bL	.	12d#L]	.	.
.	.	12A	.	12b	.	12f#	.	.
8r	.	.	.	.	.	.	.	.
.	.	12AJ	.	12bJ	.	12bJ)	.	.
=147	=147	=147	=147	=147	=147	=147	=147	=147
12EE'L	.	([4E	.	12bL	.	4g#	.	I
12EE'	.	.	.	(12e	.	.	.	.
12EE'J	.	.	.	12g#J	.	.	.	.
8EE'	.	12EL]	.	[4b)	.	12gg#L	.	.
.	.	12B	.	.	.	12gg#	.	.
8r	.	.	.	.	.	.	.	.
.	.	12G#J)	.	.	.	12gg#J	.	.
12EE'L	.	([4Dn	.	12bL]	.	4r	.	V2/IV
12EE'	.	.	.	(12g#	.	.	.	.
12EE'J	.	.	.	12bJ	.	.	.	.
8EE'	.	12DL]	.	4ee	.	12gg#L	.	.
.	.	12E	.	.	.	12gg#	.	.
8r	.	.	.	.	.	.	.	.
.	.	12DJ)	.	.	.	12gg#J	.	.
=148	=148	=148	=148	=148	=148	=148	=148	=148
12EE'L	.	([4Cn	.	12eeL)	.	4r	.	iv6
12EE'	.	.	.	(12a	.	.	.	.
12EE'J	.	.	.	12ccnJ	.	.	.	.
8EE'	.	12CL]	.	4ee)	.	12aaL	.	.
.	.	12E	.	.	.	12aa	.	.
8r	.	.	.	.	.	.	.	.
.	.	12AJ)	.	.	.	12aaJ	.	.
12EE'L	.	([4D#X	.	(12ff#L	.	4r	.	V65
12EE'	.	.	.	12a	.	.	.	.
12EE'J	.	.	.	12bJ	.	.	.	.
8EE'	.	12D#L]	.	12ff#L	.	12bbL	.	.
.	.	12F#	.	12b	.	12bb	.	.
8r	.	.	.	.	.	.	.	.
.	.	12BJ)	.	12aJ)	.	[12bbJ	.	.
=149	=149	=149	=149	=149	=149	=149	=149	=149
12EE'L	.	([4E	.	4g#	.	12bbL]	.	I
12EE'	.	.	.	.	.	(12ee	.	.
12EE'J	.	.	.	.	.	12gg#J	.	.
8EE'	.	12EL]	.	12r	.	[4bb)	.	.
.	.	12D#	.	(12g#L	.	.	.	.
8r	.	.	.	.	.	.	.	.
.	.	12EJ)	.	12bJ	.	.	.	.
12EE'L	.	([4D#	.	4a)	.	12bbL]	.	V65
12EE'	.	.	.	.	.	(12ff#	.	.
12EE'J	.	.	.	.	.	12aaJ	.	.
8EE'	.	12D#L]	.	12r	.	[4bb)	.	.
.	.	12C#	.	(12aL	.	.	.	.
8r	.	.	.	.	.	.	.	.
.	.	12D#J)	.	12bJ	.	.	.	.
=150	=150	=150	=150	=150	=150	=150	=150	=150
!LO:TX:b:i:t=dim.	!	!LO:TX:b:i:t=dim.	!	!LO:TX:b:i:t=dim.	!	!LO:TX:b:i:t=dim.	!	!
12EE'L	.	([4E	.	4g#)	.	12bbL]	.	I
12EE'	.	.	.	.	.	(12ee	.	.
12EE'J	.	.	.	.	.	12gg#J	.	.
8EE'	.	12EL]	.	12r	.	[4bb)	.	.
.	.	12D#	.	(12g#L	.	.	.	.
8r	.	.	.	.	.	.	.	.
.	.	12EJ)	.	12bJ	.	.	.	.
12EE'L	.	([4D#	.	4a)	.	12bbL]	.	V65
12EE'	.	.	.	.	.	(12ff#	.	.
12EE'J	.	.	.	.	.	12aaJ	.	.
8EE'	.	12D#L]	.	12r	.	[4bb)	.	.
.	.	12C#	.	(12aL	.	.	.	.
8r	.	.	.	.	.	.	.	.
.	.	12D#J)	.	12bJ	.	.	.	.
=151	=151	=151	=151	=151	=151	=151	=151	=151
1EE	.	2E	.	1g#)	.	12bbL]	.	I]
.	.	.	.	.	.	(12aa	.	.
.	.	.	.	.	.	12gg#J	.	.
.	.	.	.	.	.	12ff#L	.	.
.	.	.	.	.	.	12ee	.	.
.	.	.	.	.	.	12dd#J	.	.
.	.	[2G#	.	.	.	12eeL	.	.
.	.	.	.	.	.	12dd#	.	.
.	.	.	.	.	.	12cc#J	.	.
.	.	.	.	.	.	12bL	.	.
.	.	.	.	.	.	12a#X	.	.
.	.	.	.	.	.	12cc#J)	.	.
=152	=152	=152	=152	=152	=152	=152	=152	=152
[1E	.	1G#]	.	(12bL	.	1b	.	I
.	.	.	.	12a	.	.	.	.
.	.	.	.	12g#J	.	.	.	.
.	.	.	.	12f#L	.	.	.	.
.	.	.	.	12e	.	.	.	.
.	.	.	.	12d#J	.	.	.	.
.	.	.	.	12eL	.	.	.	.
.	.	.	.	12d#	.	.	.	.
.	.	.	.	12c#J	.	.	.	.
.	.	.	.	12BL	.	.	.	.
.	.	.	.	12A#X	.	.	.	.
.	.	.	.	12c#J)	.	.	.	.
=153	=153	=153	=153	=153	=153	=153	=153	=153
2E]	.	(12BL	.	[1B [1e	.	[1g#	.	.
.	.	12A	.	.	.	.	.	.
.	.	12G#J	.	.	.	.	.	.
.	.	12F#L	.	.	.	.	.	.
.	.	12E	.	.	.	.	.	.
.	.	12D#J)	.	.	.	.	.	.
(12EL	.	[2E	.	.	.	.	.	.
12D#	.	.	.	.	.	.	.	.
12C#J	.	.	.	.	.	.	.	.
12BBL	.	.	.	.	.	.	.	.
12AA#X	.	.	.	.	.	.	.	.
12C#J)	.	.	.	.	.	.	.	.
=154	=154	=154	=154	=154	=154	=154	=154	=154
(12BBL	.	1E_	.	1B_ 1e_	.	1g#_	.	I64
12AAn	.	.	.	.	.	.	.	.
12GG#J	.	.	.	.	.	.	.	.
12FF#L	.	.	.	.	.	.	.	.
12EE	.	.	.	.	.	.	.	.
12DD#J	.	.	.	.	.	.	.	.
12EEL	.	.	.	.	.	.	.	.
12DD#	.	.	.	.	.	.	.	.
12FF#J	.	.	.	.	.	.	.	.
12EEL	.	.	.	.	.	.	.	.
12DD#	.	.	.	.	.	.	.	.
12FF#J)	.	.	.	.	.	.	.	.
=155	=155	=155	=155	=155	=155	=155	=155	=155
(12EEL	.	2E]	.	2B] 2e]	.	2g#]	.	I
12DD#	.	.	.	.	.	.	.	.
12FF#J	.	.	.	.	.	.	.	.
12EEL	.	.	.	.	.	.	.	.
12DD#	.	.	.	.	.	.	.	.
12FF#J	.	.	.	.	.	.	.	.
12EEL	.	8G#	.	8B	.	8e	.	.
12DD#	.	.	.	.	.	.	.	.
.	.	8r	.	8r	.	8r	.	.
12FF#J	.	.	.	.	.	.	.	.
12EEL	.	8G#	.	8B	.	8e	.	.
12DD#	.	.	.	.	.	.	.	.
.	.	8r	.	8r	.	8r	.	.
12FF#J)	.	.	.	.	.	.	.	.
=156	=156	=156	=156	=156	=156	=156	=156	=156
8EE	.	8G#	.	8B	.	8e	.	.
8r	.	8r	.	8r	.	8r	.	.
4r	.	4r	.	4r	.	4r	.	.
8EE	.	8E	.	8G#	.	8B	.	.
8r	.	8r	.	8r	.	8r	.	.
4r	.	4r	.	4r	.	4r	.	.
=157	=157	=157	=157	=157	=157	=157	=157	=157
1EE;	< > ]]	1E;	< > ]]	1G#;	< > ]]	1B;	< > ]]	I\\
==	==	==	==	==	==	==	==	==
*-	*-	*-	*-	*-	*-	*-	*-	*-
!!!system-decoration: [(s1,s2,s3,s4)]
!!!YEM:  
